;FLAVOR:Marlin
;TIME:16258
;Filament used: 21.3287m
;Layer height: 0.28
;MINX:25.365
;MINY:69.63
;MINZ:0.336
;MAXX:200.634
;MAXY:179.11
;MAXZ:16.306
;Generated with Cura_SteamEngine 4.4.0
M140 S60
M105
M190 S60
M104 S200
M105
M109 S200
M82 ;absolute extrusion mode
M201 X500.00 Y500.00 Z100.00 E5000.00 ;Setup machine max acceleration
M203 X500.00 Y500.00 Z10.00 E50.00 ;Setup machine max feedrate
M204 P500.00 R1000.00 T500.00 ;Setup Print/Retract/Travel acceleration
M205 X8.00 Y8.00 Z0.40 E5.00 ;Setup Jerk
M220 S100 ;Reset Feedrate
M221 S100 ;Reset Flowrate

G28 ;Home

G92 E0 ;Reset Extruder
G1 Z2.0 F3000 ;Move Z Axis up
G1 X10.1 Y20 Z0.28 F5000.0 ;Move to start position
G1 X10.1 Y200.0 Z0.28 F1500.0 E15 ;Draw the first line
G1 X10.4 Y200.0 Z0.28 F5000.0 ;Move to side a little
G1 X10.4 Y20 Z0.28 F1500.0 E30 ;Draw the second line
G92 E0 ;Reset Extruder
G1 Z2.0 F3000 ;Move Z Axis up

G92 E0
G92 E0
G1 F1500 E-6.5
;LAYER_COUNT:53
;LAYER:-6
M107
G0 F9000 X48.331 Y72.874 Z0.336
;TYPE:SUPPORT-INTERFACE
G1 F1500 E0
G1 F1350 X48.449 Y72.803 E0.01539
G1 X49.243 Y72.357 E0.11716
G1 X49.393 Y72.279 E0.13606
G1 X50.223 Y71.889 E0.23854
G1 X50.357 Y71.833 E0.25477
G1 X51.36 Y71.455 E0.37456
G1 X52.21 Y71.2 E0.47373
G1 X52.383 Y71.154 E0.49374
G1 X53.278 Y70.953 E0.59625
G1 X53.408 Y70.93 E0.611
G1 X54.313 Y70.796 E0.71324
G1 X54.482 Y70.778 E0.73223
G1 X55.555 Y70.703 E0.85244
G1 X56.06 Y70.695 E0.90888
G1 X96.003 Y70.696 E5.37267
G1 X97.127 Y70.741 E5.49839
G1 X98.044 Y70.843 E5.6015
G1 X98.219 Y70.868 E5.62125
G1 X99.108 Y71.032 E5.72228
G1 X99.231 Y71.06 E5.73638
G1 X100.125 Y71.294 E5.83965
G1 X100.288 Y71.343 E5.85867
G1 X101.13 Y71.63 E5.95808
G1 X101.296 Y71.693 E5.97793
G1 X102.099 Y72.034 E6.07542
G1 X102.288 Y72.122 E6.09872
G1 X103.199 Y72.596 E6.21348
G1 X103.978 Y73.071 E6.31545
G1 X104.129 Y73.171 E6.33569
G1 X104.843 Y73.682 E6.43381
G1 X104.991 Y73.795 E6.45462
G1 X105.682 Y74.371 E6.55515
G1 X105.795 Y74.472 E6.57209
G1 X106.444 Y75.097 E6.67278
G1 X106.564 Y75.222 E6.69214
G1 X107.167 Y75.893 E6.79296
G1 X107.263 Y76.009 E6.80979
G1 X107.822 Y76.733 E6.91201
G1 X107.916 Y76.864 E6.93003
G1 X108.448 Y77.672 E7.03814
G1 X108.83 Y78.221 E7.11288
G1 X109.288 Y78.728 E7.18924
G1 X109.807 Y79.172 E7.26557
G1 X110.377 Y79.548 E7.34188
G1 X110.989 Y79.848 E7.41805
G1 X111.636 Y80.07 E7.49449
G1 X112.305 Y80.207 E7.5708
G1 X112.986 Y80.26 E7.64714
G1 X113.667 Y80.225 E7.72334
G1 X114.34 Y80.105 E7.79974
G1 X114.992 Y79.901 E7.87609
G1 X115.613 Y79.617 E7.9524
G1 X116.192 Y79.256 E8.02865
G1 X116.722 Y78.826 E8.10492
G1 X117.195 Y78.33 E8.18152
G1 X117.661 Y77.681 E8.27081
G1 X117.774 Y77.495 E8.29513
G1 X117.876 Y77.341 E8.31577
G1 X118.387 Y76.627 E8.41389
G1 X118.5 Y76.479 E8.4347
G1 X119.076 Y75.788 E8.53523
G1 X119.177 Y75.675 E8.55217
G1 X119.802 Y75.026 E8.65286
G1 X119.927 Y74.906 E8.67223
G1 X120.598 Y74.303 E8.77305
G1 X121.426 Y73.657 E8.89041
G1 X121.585 Y73.544 E8.91221
G1 X122.323 Y73.054 E9.01121
G1 X122.449 Y72.978 E9.02765
G1 X123.243 Y72.532 E9.12942
G1 X123.393 Y72.454 E9.14832
G1 X124.208 Y72.071 E9.24895
G1 X124.351 Y72.011 E9.26628
G1 X125.21 Y71.682 E9.36908
G1 X125.36 Y71.63 E9.38682
G1 X126.21 Y71.375 E9.486
G1 X126.383 Y71.329 E9.506
G1 X127.278 Y71.128 E9.60851
G1 X127.408 Y71.105 E9.62327
G1 X128.313 Y70.971 E9.72551
G1 X128.482 Y70.953 E9.7445
G1 X129.555 Y70.878 E9.8647
G1 X130.06 Y70.87 E9.92115
G1 X170.003 Y70.871 E14.38494
G1 X171.127 Y70.916 E14.51065
G1 X172.044 Y71.018 E14.61376
G1 X172.219 Y71.043 E14.63352
G1 X173.108 Y71.207 E14.73454
G1 X173.231 Y71.235 E14.74864
G1 X174.125 Y71.469 E14.85191
G1 X174.288 Y71.518 E14.87094
G1 X175.13 Y71.805 E14.97035
G1 X175.296 Y71.868 E14.99019
G1 X176.099 Y72.209 E15.08768
G1 X176.288 Y72.297 E15.11098
G1 X177.199 Y72.771 E15.22575
G1 X177.978 Y73.246 E15.32771
G1 X178.129 Y73.346 E15.34795
G1 X178.843 Y73.857 E15.44607
G1 X178.991 Y73.97 E15.46688
G1 X179.682 Y74.546 E15.56742
G1 X179.795 Y74.647 E15.58435
G1 X180.444 Y75.272 E15.68505
G1 X180.564 Y75.397 E15.70441
G1 X181.167 Y76.068 E15.80523
G1 X181.263 Y76.184 E15.82205
G1 X181.813 Y76.896 E15.9226
G1 X181.926 Y77.055 E15.9444
G1 X182.416 Y77.793 E16.0434
G1 X182.492 Y77.919 E16.05984
G1 X182.938 Y78.713 E16.16161
G1 X183.016 Y78.863 E16.18051
G1 X183.399 Y79.678 E16.28114
G1 X183.459 Y79.821 E16.29847
G1 X183.788 Y80.68 E16.40127
G1 X183.84 Y80.83 E16.41901
G1 X184.095 Y81.68 E16.51818
G1 X184.141 Y81.853 E16.53819
G1 X184.34 Y82.739 E16.63967
G1 X184.365 Y82.878 E16.65545
G1 X184.498 Y83.777 E16.75701
G1 X184.516 Y83.939 E16.77523
G1 X184.592 Y85.025 E16.89689
G1 X184.6 Y85.526 E16.95289
G1 X184.6 Y90.794 E17.54161
G1 X184.642 Y91.462 E17.61641
G1 X184.771 Y92.133 E17.69277
G1 X184.984 Y92.782 E17.7691
G1 X185.276 Y93.399 E17.84539
G1 X185.642 Y93.972 E17.92137
G1 X185.989 Y94.398 E17.98277
G1 X188.027 Y96.653 E18.32245
G1 X189.013 Y97.871 E18.49757
G1 X191.199 Y100.883 E18.91348
G1 X192.066 Y102.228 E19.09231
G1 X193.928 Y105.477 E19.5108
G1 X194.638 Y106.889 E19.68743
G1 X196.074 Y110.157 E20.08634
G1 X196.15 Y110.345 E20.109
G1 X196.683 Y111.766 E20.27861
G1 X197.806 Y115.323 E20.69546
G1 X198.203 Y116.873 E20.87427
G1 X198.939 Y120.52 E21.29005
G1 X199.169 Y122.097 E21.46815
G1 X199.51 Y125.819 E21.88584
G1 X199.569 Y127.359 E22.05807
G1 X199.512 Y131.125 E22.47899
G1 X199.402 Y132.704 E22.65587
G1 X198.944 Y136.404 E23.07252
G1 X198.664 Y137.962 E23.24942
G1 X197.817 Y141.585 E23.66522
G1 X197.364 Y143.131 E23.84526
G1 X196.134 Y146.64 E24.2608
G1 X195.519 Y148.126 E24.44053
G1 X193.928 Y151.466 E24.85397
G1 X193.159 Y152.874 E25.03326
G1 X191.201 Y156.054 E25.4506
G1 X190.323 Y157.322 E25.62296
G1 X188.024 Y160.291 E26.0426
G1 X186.965 Y161.511 E26.22314
G1 X184.38 Y164.196 E26.63966
G1 X183.222 Y165.272 E26.81631
G1 X180.371 Y167.661 E27.23199
G1 X179.084 Y168.623 E27.41156
G1 X176.006 Y170.684 E27.82553
G1 X174.652 Y171.488 E28.00151
G1 X171.336 Y173.225 E28.41985
G1 X169.897 Y173.883 E28.59668
G1 X166.399 Y175.261 E29.01684
G1 X164.926 Y175.75 E29.19028
G1 X161.323 Y176.742 E29.60792
G1 X159.792 Y177.074 E29.78299
G1 X156.095 Y177.675 E30.20157
G1 X154.533 Y177.843 E30.37713
G1 X150.797 Y178.045 E30.79526
G1 X149.203 Y178.044 E30.97339
G1 X145.621 Y177.858 E31.37423
G1 X145.474 Y177.845 E31.39073
G1 X143.901 Y177.675 E31.56754
G1 X140.227 Y177.08 E31.98347
G1 X138.659 Y176.736 E32.16287
G1 X135.052 Y175.744 E32.58093
G1 X133.556 Y175.244 E32.75721
G1 X130.115 Y173.89 E33.17045
G1 X128.642 Y173.215 E33.35153
G1 X125.333 Y171.48 E33.76907
G1 X123.978 Y170.672 E33.94538
G1 X120.867 Y168.589 E34.36378
G1 X119.622 Y167.654 E34.53778
G1 X116.774 Y165.271 E34.95278
G1 X116.572 Y165.084 E34.98354
G1 X116.054 Y164.659 E35.05842
G1 X115.475 Y164.297 E35.13473
G1 X114.855 Y164.011 E35.21103
G1 X114.203 Y163.806 E35.28741
G1 X113.531 Y163.684 E35.36374
G1 X112.85 Y163.648 E35.43995
G1 X112.168 Y163.699 E35.51638
G1 X111.5 Y163.835 E35.59256
G1 X110.853 Y164.054 E35.6689
G1 X110.239 Y164.353 E35.74522
G1 X109.672 Y164.725 E35.821
G1 X109.342 Y164.993 E35.86851
G1 X109.226 Y165.095 E35.88577
G1 X106.385 Y167.477 E36.3001
G1 X105.08 Y168.452 E36.48214
G1 X102.011 Y170.506 E36.89484
G1 X100.654 Y171.312 E37.07123
G1 X97.322 Y173.057 E37.49156
G1 X95.871 Y173.718 E37.66975
G1 X92.431 Y175.075 E38.08302
G1 X90.925 Y175.578 E38.26046
G1 X87.31 Y176.57 E38.67938
G1 X85.792 Y176.899 E38.85296
G1 X82.095 Y177.5 E39.27154
G1 X80.533 Y177.668 E39.44711
G1 X76.797 Y177.87 E39.86523
G1 X75.203 Y177.869 E40.04337
G1 X71.621 Y177.683 E40.44421
G1 X71.474 Y177.67 E40.4607
G1 X69.901 Y177.5 E40.63752
G1 X66.227 Y176.905 E41.05345
G1 X64.68 Y176.567 E41.23041
G1 X61.058 Y175.572 E41.65018
G1 X59.576 Y175.078 E41.82476
G1 X56.116 Y173.717 E42.24027
G1 X54.641 Y173.039 E42.42168
G1 X51.335 Y171.307 E42.83877
G1 X49.993 Y170.507 E43.01337
G1 X46.887 Y168.43 E43.43094
G1 X45.629 Y167.485 E43.60677
G1 X42.762 Y165.086 E44.02454
G1 X41.593 Y163.993 E44.20339
G1 X39.006 Y161.307 E44.62015
G1 X37.976 Y160.114 E44.79629
G1 X35.677 Y157.147 E45.21575
G1 X34.785 Y155.856 E45.39111
G1 X32.909 Y152.817 E45.79023
G1 X32.818 Y152.66 E45.81051
G1 X32.07 Y151.283 E45.98563
G1 X30.47 Y147.927 E46.40112
G1 X29.866 Y146.457 E46.57873
G1 X28.626 Y142.922 E46.99738
G1 X28.194 Y141.442 E47.16968
G1 X27.333 Y137.774 E47.59073
G1 X27.057 Y136.217 E47.76745
G1 X26.598 Y132.511 E48.18477
G1 X26.49 Y130.909 E48.36421
G1 X26.431 Y127.207 E48.77797
G1 X26.492 Y125.624 E48.95501
G1 X26.83 Y121.909 E49.37189
G1 X27.056 Y120.361 E49.54672
G1 X27.796 Y116.681 E49.96621
G1 X28.187 Y115.169 E50.14074
G1 X29.311 Y111.606 E50.55826
G1 X29.876 Y110.106 E50.73739
G1 X31.367 Y106.699 E51.153
G1 X32.08 Y105.287 E51.32977
G1 X33.942 Y102.035 E51.74856
G1 X34.808 Y100.701 E51.92629
G1 X36.992 Y97.689 E52.34207
G1 X38.007 Y96.439 E52.52202
G1 X40.017 Y94.211 E52.85736
G1 X40.434 Y93.686 E52.93228
G1 X40.788 Y93.103 E53.00851
G1 X41.065 Y92.478 E53.0849
G1 X41.261 Y91.824 E53.1612
G1 X41.372 Y91.153 E53.23721
G1 X41.4 Y90.613 E53.29764
G1 X41.4 Y85.309 E53.89038
G1 X41.436 Y84.303 E54.00288
G1 X41.446 Y84.168 E54.01801
G1 X41.548 Y83.251 E54.12112
G1 X41.573 Y83.076 E54.14087
G1 X41.735 Y82.198 E54.24065
G1 X41.765 Y82.064 E54.25599
G1 X41.996 Y81.179 E54.35821
G1 X42.048 Y81.007 E54.37829
G1 X42.335 Y80.165 E54.4777
G1 X42.398 Y79.999 E54.49755
G1 X42.738 Y79.197 E54.59489
G1 X42.823 Y79.016 E54.61724
G1 X43.301 Y78.096 E54.7331
G1 X43.776 Y77.317 E54.83507
G1 X43.876 Y77.166 E54.85531
G1 X44.387 Y76.452 E54.95343
G1 X44.5 Y76.304 E54.97424
G1 X45.076 Y75.613 E55.07477
G1 X45.177 Y75.5 E55.09171
G1 X45.802 Y74.851 E55.1924
G1 X45.927 Y74.731 E55.21177
G1 X46.607 Y74.121 E55.31385
G1 X46.715 Y74.031 E55.32956
G1 X47.426 Y73.482 E55.42995
G1 X47.585 Y73.369 E55.45175
G1 X48.331 Y72.874 E55.5518
G0 F9000 X48 Y73.093
G1 F1350 X48 Y169.174 E66.28924
G0 F9000 X49.6 Y170.244
G1 F1350 X49.6 Y72.181 E77.24818
G0 F9000 X51.2 Y71.515
G1 F1350 X51.2 Y171.226 E88.39129
G0 F9000 X52.8 Y172.074
G1 F1350 X52.8 Y71.06 E99.68002
G0 F9000 X54.4 Y70.786
G1 F1350 X54.4 Y172.912 E111.09301
G0 F9000 X56 Y173.663
G1 F1350 X56 Y70.695 E122.6001
G0 F9000 X57.6 Y70.696
G1 F1350 X57.6 Y174.3 E134.17827
G0 F9000 X59.2 Y174.93
G1 F1350 X59.2 Y70.696 E145.82684
G0 F9000 X60.8 Y70.696
G1 F1350 X60.8 Y175.486 E157.53755
G0 F9000 X62.4 Y175.94
G1 F1350 X62.4 Y70.696 E169.29899
G0 F9000 X64 Y70.696
G1 F1350 X64 Y176.38 E181.10961
G0 F9000 X65.6 Y176.768
G1 F1350 X65.6 Y70.696 E192.96358
G0 F9000 X67.2 Y70.696
G1 F1350 X67.2 Y177.062 E204.85041
G0 F9000 X68.8 Y177.321
G1 F1350 X68.8 Y70.696 E216.76619
G0 F9000 X70.4 Y70.696
G1 F1350 X70.4 Y177.553 E228.70789
G0 F9000 X72 Y177.702
G1 F1350 X72 Y70.696 E240.66625
G0 F9000 X73.6 Y70.696
G1 F1350 X73.6 Y177.785 E252.63388
G0 F9000 X75.2 Y177.868
G1 F1350 X75.2 Y70.696 E264.61078
G0 F9000 X76.8 Y70.696
G1 F1350 X76.8 Y177.87 E276.58791
G0 F9000 X78.4 Y177.784
G1 F1350 X78.4 Y70.696 E288.55543
G0 F9000 X80 Y70.696
G1 F1350 X80 Y177.697 E300.51323
G0 F9000 X81.6 Y177.554
G1 F1350 X81.6 Y70.696 E312.45504
G0 F9000 X83.2 Y70.696
G1 F1350 X83.2 Y177.321 E324.37082
G0 F9000 X84.8 Y177.061
G1 F1350 X84.8 Y70.696 E336.25754
G0 F9000 X86.4 Y70.696
G1 F1350 X86.4 Y176.768 E348.11151
G0 F9000 X88 Y176.381
G1 F1350 X88 Y70.696 E359.92224
G0 F9000 X89.6 Y70.696
G1 F1350 X89.6 Y175.942 E371.68391
G0 F9000 X91.2 Y175.487
G1 F1350 X91.2 Y70.696 E383.39472
G0 F9000 X92.8 Y70.696
G1 F1350 X92.8 Y174.93 E395.0433
G0 F9000 X94.4 Y174.299
G1 F1350 X94.4 Y70.696 E406.62135
G0 F9000 X96 Y70.696
G1 F1350 X96 Y173.66 E418.128
G0 F9000 X97.6 Y172.912
G1 F1350 X97.6 Y70.794 E429.5401
G0 F9000 X99.2 Y71.053
G1 F1350 X99.2 Y172.074 E440.8296
G0 F9000 X100.8 Y171.226
G1 F1350 X100.8 Y71.518 E451.97238
G0 F9000 X102.4 Y72.181
G1 F1350 X102.4 Y170.246 E462.93154
G0 F9000 X104 Y169.175
G1 F1350 X104 Y73.086 E473.66987
G0 F9000 X105.6 Y74.303
G1 F1350 X105.6 Y168.064 E484.14804
G0 F9000 X107.2 Y166.794
G1 F1350 X107.2 Y75.933 E494.30213
G0 F9000 X108.8 Y78.178
G1 F1350 X108.8 Y165.453 E504.05547
G0 F9000 X110.4 Y164.275
G1 F1350 X110.4 Y79.56 E513.52271
G0 F9000 X112 Y80.145
G1 F1350 X112 Y163.734 E522.86412
G0 F9000 X113.6 Y163.696
G1 F1350 X113.6 Y80.228 E532.19201
G0 F9000 X115.2 Y79.805
G1 F1350 X115.2 Y164.17 E541.62014
G0 F9000 X116.8 Y165.292
G1 F1350 X116.8 Y78.744 E551.29223
G0 F9000 X118.4 Y76.609
G1 F1350 X118.4 Y166.631 E561.35255
G0 F9000 X120 Y167.937
G1 F1350 X120 Y74.84 E571.75652
G0 F9000 X121.6 Y73.534
G1 F1350 X121.6 Y169.079 E582.43406
G0 F9000 X123.2 Y170.151
G1 F1350 X123.2 Y72.556 E593.3407
G0 F9000 X124.8 Y71.839
G1 F1350 X124.8 Y171.162 E604.44044
G0 F9000 X126.4 Y172.039
G1 F1350 X126.4 Y71.325 E615.69564
G0 F9000 X128 Y71.017
G1 F1350 X128 Y172.878 E627.07902
G0 F9000 X129.6 Y173.654
G1 F1350 X129.6 Y70.877 E638.56477
G0 F9000 X131.2 Y70.871
G1 F1350 X131.2 Y174.316 E650.12517
G0 F9000 X132.8 Y174.946
G1 F1350 X132.8 Y70.871 E661.75597
G0 F9000 X134.4 Y70.871
G1 F1350 X134.4 Y175.526 E673.45159
G0 F9000 X136 Y176.004
G1 F1350 X136 Y70.871 E685.20063
G0 F9000 X137.6 Y70.871
G1 F1350 X137.6 Y176.444 E696.99884
G0 F9000 X139.2 Y176.854
G1 F1350 X139.2 Y70.871 E708.84287
G0 F9000 X140.8 Y70.871
G1 F1350 X140.8 Y177.172 E720.72244
G0 F9000 X142.4 Y177.431
G1 F1350 X142.4 Y70.871 E732.63095
G0 F9000 X144 Y70.871
G1 F1350 X144 Y177.685 E744.56785
G0 F9000 X145.6 Y177.856
G1 F1350 X145.6 Y70.871 E756.52385
G0 F9000 X147.2 Y70.871
G1 F1350 X147.2 Y177.939 E768.48914
G0 F9000 X148.8 Y178.023
G1 F1350 X148.8 Y70.871 E780.46381
G0 F9000 X150.4 Y70.871
G1 F1350 X150.4 Y178.044 E792.44082
G0 F9000 X152 Y177.98
G1 F1350 X152 Y70.871 E804.41069
G0 F9000 X153.6 Y70.871
G1 F1350 X153.6 Y177.894 E816.37094
G0 F9000 X155.2 Y177.772
G1 F1350 X155.2 Y70.871 E828.31756
G0 F9000 X156.8 Y70.871
G1 F1350 X156.8 Y177.561 E840.2406
G0 F9000 X158.4 Y177.301
G1 F1350 X158.4 Y70.871 E852.13459
G0 F9000 X160 Y70.871
G1 F1350 X160 Y177.029 E863.99817
G0 F9000 X161.6 Y176.666
G1 F1350 X161.6 Y70.871 E875.82119
G0 F9000 X163.2 Y70.871
G1 F1350 X163.2 Y176.226 E887.59504
G0 F9000 X164.8 Y175.785
G1 F1350 X164.8 Y70.871 E899.31961
G0 F9000 X166.4 Y70.871
G1 F1350 X166.4 Y175.261 E910.98561
G0 F9000 X168 Y174.631
G1 F1350 X168 Y70.871 E922.58121
G0 F9000 X169.6 Y70.871
G1 F1350 X169.6 Y174 E934.1063
G0 F9000 X171.2 Y173.288
G1 F1350 X171.2 Y70.925 E945.54578
G0 F9000 X172.8 Y71.151
G1 F1350 X172.8 Y172.459 E956.86736
G0 F9000 X174.4 Y171.621
G1 F1350 X174.4 Y71.557 E968.04991
G0 F9000 X176 Y72.167
G1 F1350 X176 Y170.688 E979.06004
G0 F9000 X177.6 Y169.617
G1 F1350 X177.6 Y73.016 E989.85559
G0 F9000 X179.2 Y74.145
G1 F1350 X179.2 Y168.537 E1000.40428
G0 F9000 X180.8 Y167.302
G1 F1350 X180.8 Y75.66 E1010.64564
G0 F9000 X182.4 Y77.769
G1 F1350 X182.4 Y165.961 E1020.50146
G0 F9000 X184 Y164.55
G1 F1350 X184 Y81.364 E1029.79783
G1 F1500 E1023.29783
G0 F9000 X185.173 Y81.592
G0 X185.516 Y83.444
G0 X186.209 Y92.881
G0 X185.6 Y93.907
G1 F1500 E1029.79783
G1 F1350 X185.6 Y162.929 E1037.51132
G0 F9000 X187.2 Y161.241
G1 F1350 X187.2 Y95.738 E1044.83154
G0 F9000 X188.8 Y97.608
G1 F1350 X188.8 Y159.289 E1051.72464
G0 F9000 X190.4 Y157.211
G1 F1350 X190.4 Y99.783 E1058.14246
G0 F9000 X192 Y102.126
G1 F1350 X192 Y154.757 E1064.02418
G0 F9000 X193.6 Y152.067
G1 F1350 X193.6 Y104.905 E1069.29473
G0 F9000 X195.2 Y108.168
G1 F1350 X195.2 Y148.796 E1073.83507
G0 F9000 X196.8 Y144.741
G1 F1350 X196.8 Y112.137 E1077.4787
G1 F1500 E1070.9787
G0 F9000 X197.815 Y111.815
G0 X198.834 Y115.048
G0 X199.444 Y117.639
G0 X198.4 Y117.85
G1 F1500 E1077.4787
