;FLAVOR:Marlin
;TIME:31241
;Filament used: 40.7736m
;Layer height: 0.25
;MINX:22.552
;MINY:18.72
;MINZ:0.336
;MAXX:276.503
;MAXY:204.945
;MAXZ:21.141
;Generated with Cura_SteamEngine 4.4.0
M140 S60
M105
M190 S60
M104 S220
M105
M109 S220
M82 ;absolute extrusion mode
M201 X500.00 Y500.00 Z100.00 E5000.00 ;Setup machine max acceleration
M203 X500.00 Y500.00 Z10.00 E50.00 ;Setup machine max feedrate
M204 P500.00 R1000.00 T500.00 ;Setup Print/Retract/Travel acceleration
M205 X8.00 Y8.00 Z0.40 E5.00 ;Setup Jerk
M220 S100 ;Reset Feedrate
M221 S100 ;Reset Flowrate

G28 ;Home

G92 E0 ;Reset Extruder
G1 Z2.0 F3000 ;Move Z Axis up
G1 X10.1 Y20 Z0.28 F5000.0 ;Move to start position
G1 X10.1 Y200.0 Z0.28 F1500.0 E15 ;Draw the first line
G1 X10.4 Y200.0 Z0.28 F5000.0 ;Move to side a little
G1 X10.4 Y20 Z0.28 F1500.0 E30 ;Draw the second line
G92 E0 ;Reset Extruder
G1 Z2.0 F3000 ;Move Z Axis up

G92 E0
G92 E0
G1 F1500 E-6.5
;LAYER_COUNT:79
;LAYER:-6
M107
G0 F9000 X52.95 Y108.986 Z0.336
;TYPE:SUPPORT-INTERFACE
G1 F1500 E0
G1 F1350 X130.328 Y68.399 E9.76468
G1 X130.373 Y68.377 E9.77028
G1 X131.665 Y67.698 E9.93339
G1 X176.646 Y44.103 E15.60981
G1 X212.868 Y25.105 E20.18075
G1 X213.453 Y24.815 E20.25372
G1 X217.515 Y22.898 E20.75568
G1 X218.415 Y22.513 E20.86507
G1 X218.58 Y22.451 E20.88477
G1 X219.833 Y22.035 E21.03231
G1 X224.158 Y20.812 E21.5346
G1 X225.072 Y20.59 E21.63972
G1 X225.267 Y20.55 E21.66196
G1 X226.555 Y20.349 E21.80764
G1 X231.077 Y19.849 E22.31607
G1 X231.97 Y19.783 E22.41614
G1 X232.167 Y19.776 E22.43817
G1 X233.485 Y19.789 E22.58547
G1 X238.019 Y20.039 E23.09293
G1 X238.926 Y20.121 E23.19471
G1 X239.095 Y20.144 E23.21377
G1 X240.397 Y20.374 E23.36153
G1 X244.809 Y21.361 E23.86677
G1 X245.712 Y21.598 E23.9711
G1 X245.905 Y21.657 E23.99366
G1 X247.141 Y22.096 E24.14024
G1 X251.327 Y23.798 E24.64523
G1 X252.171 Y24.177 E24.74862
G1 X252.358 Y24.27 E24.77196
G1 X253.51 Y24.91 E24.91924
G1 X257.37 Y27.283 E25.42561
G1 X258.121 Y27.781 E25.52631
G1 X258.274 Y27.892 E25.54743
G1 X259.202 Y28.627 E25.67973
G1 X259.323 Y28.73 E25.69749
G1 X262.706 Y31.676 E26.19881
G1 X263.401 Y32.328 E26.3053
G1 X263.536 Y32.466 E26.32688
G1 X264.413 Y33.44 E26.47335
G1 X267.271 Y36.911 E26.97582
G1 X267.856 Y37.677 E27.08353
G1 X267.943 Y37.802 E27.10055
G1 X268.683 Y38.962 E27.25432
G1 X270.896 Y42.796 E27.74904
G1 X271.326 Y43.605 E27.85142
G1 X271.416 Y43.793 E27.87472
G1 X271.883 Y44.877 E28.00662
G1 X272.349 Y46.096 E28.15246
G1 X273.523 Y49.234 E28.52689
G1 X273.837 Y50.178 E28.63807
G1 X273.884 Y50.339 E28.65681
G1 X274.186 Y51.583 E28.79987
G1 X275.049 Y55.989 E29.30161
G1 X275.199 Y56.938 E29.40899
G1 X275.218 Y57.103 E29.42755
G1 X275.312 Y58.395 E29.57232
G1 X275.445 Y62.922 E30.07844
G1 X275.439 Y63.855 E30.18271
G1 X275.43 Y64.045 E30.20397
G1 X275.307 Y65.371 E30.35279
G1 X274.706 Y69.776 E30.84963
G1 X274.538 Y70.748 E30.95986
G1 X274.5 Y70.923 E30.97988
G1 X274.167 Y72.191 E31.12639
G1 X272.838 Y76.467 E31.6268
G1 X272.515 Y77.386 E31.73566
G1 X272.436 Y77.585 E31.75958
G1 X271.903 Y78.771 E31.90489
G1 X269.871 Y82.803 E32.40947
G1 X269.412 Y83.637 E32.51586
G1 X269.313 Y83.8 E32.53717
G1 X268.592 Y84.883 E32.68257
G1 X265.965 Y88.47 E33.17944
G1 X265.337 Y89.265 E33.29266
G1 X265.216 Y89.405 E33.31334
G1 X264.338 Y90.343 E33.45692
G1 X261.113 Y93.492 E33.96064
G1 X260.393 Y94.145 E34.06927
G1 X260.249 Y94.266 E34.09029
G1 X259.207 Y95.062 E34.23682
G1 X255.526 Y97.623 E34.73796
G1 X255.001 Y97.972 E34.80841
G1 X220.392 Y119.871 E39.38535
G1 X176.218 Y147.821 E45.22715
G1 X128.101 Y178.265 E51.59035
G1 X127.702 Y178.515 E51.64297
G1 X100.885 Y195.482 E55.18934
G1 X100.3 Y195.835 E55.2657
G1 X95.326 Y198.695 E55.9069
G1 X94.498 Y199.131 E56.01148
G1 X94.334 Y199.209 E56.03177
G1 X93.13 Y199.72 E56.17794
G1 X87.737 Y201.73 E56.82113
G1 X86.855 Y202.023 E56.92499
G1 X86.665 Y202.077 E56.94707
G1 X85.419 Y202.38 E57.09037
G1 X79.766 Y203.476 E57.73388
G1 X78.825 Y203.624 E57.84033
G1 X78.652 Y203.643 E57.85978
G1 X77.345 Y203.737 E58.00622
G1 X71.576 Y203.89 E58.65116
G1 X70.645 Y203.881 E58.75521
G1 X70.463 Y203.872 E58.77557
G1 X69.142 Y203.746 E58.92387
G1 X63.429 Y202.947 E59.56853
G1 X62.545 Y202.791 E59.66885
G1 X62.358 Y202.75 E59.69024
G1 X61.077 Y202.411 E59.83833
G1 X55.608 Y200.696 E60.47886
G1 X54.737 Y200.389 E60.58207
G1 X54.526 Y200.304 E60.60749
G1 X53.358 Y199.776 E60.75073
G1 X48.221 Y197.173 E61.39431
G1 X47.405 Y196.723 E61.49845
G1 X47.258 Y196.633 E61.51771
G1 X46.149 Y195.892 E61.66676
G1 X41.501 Y192.471 E62.31172
G1 X40.783 Y191.901 E62.41417
G1 X40.631 Y191.77 E62.4366
G1 X39.684 Y190.879 E62.58191
G1 X35.658 Y186.736 E63.2275
G1 X35.042 Y186.054 E63.33021
G1 X34.937 Y185.928 E63.34854
G1 X34.147 Y184.891 E63.49422
G1 X30.849 Y180.135 E64.14101
G1 X30.358 Y179.369 E64.24269
G1 X30.259 Y179.201 E64.26448
G1 X29.647 Y178.04 E64.41115
G1 X27.186 Y172.823 E65.05579
G1 X26.818 Y171.962 E65.16043
G1 X26.755 Y171.796 E65.18027
G1 X26.353 Y170.589 E65.32244
G1 X26.293 Y170.375 E65.34728
G1 X24.773 Y165.002 E65.9713
G1 X24.558 Y164.123 E66.07243
G1 X24.52 Y163.932 E66.09419
G1 X24.316 Y162.627 E66.2418
G1 X23.684 Y156.92 E66.88348
G1 X23.614 Y155.982 E66.9886
G1 X23.608 Y155.793 E67.00973
G1 X23.621 Y154.481 E67.15636
G1 X23.938 Y148.712 E67.80204
G1 X24.017 Y147.837 E67.90022
G1 X24.046 Y147.623 E67.92435
G1 X24.278 Y146.316 E68.0727
G1 X25.514 Y140.773 E68.70737
G1 X25.763 Y139.818 E68.81766
G1 X25.819 Y139.638 E68.83873
G1 X26.261 Y138.391 E68.98658
G1 X28.425 Y133.053 E69.63028
G1 X28.794 Y132.231 E69.73097
G1 X28.88 Y132.056 E69.75276
G1 X29.513 Y130.912 E69.89887
G1 X32.539 Y125.979 E70.54561
G1 X33.039 Y125.226 E70.64663
G1 X33.141 Y125.085 E70.66607
G1 X33.966 Y124.045 E70.81443
G1 X37.726 Y119.717 E71.45513
G1 X38.371 Y119.026 E71.56077
G1 X38.515 Y118.884 E71.58337
G1 X39.501 Y117.995 E71.73173
G1 X43.942 Y114.328 E72.37536
G1 X44.636 Y113.797 E72.47301
G1 X44.831 Y113.659 E72.49971
G1 X45.901 Y112.973 E72.64175
G1 X50.876 Y110.089 E73.28439
G1 X51.398 Y109.802 E73.35096
G1 X52.95 Y108.986 E73.54691
G0 F9000 X52.8 Y109.064
G1 F1350 X52.8 Y199.493 E83.65272
G0 F9000 X54.4 Y200.247
G1 F1350 X54.4 Y108.225 E93.93655
G0 F9000 X56 Y107.386
G1 F1350 X56 Y200.818 E104.37796
G0 F9000 X57.6 Y201.32
G1 F1350 X57.6 Y106.546 E114.96934
G0 F9000 X59.2 Y105.707
G1 F1350 X59.2 Y201.822 E125.71058
G0 F9000 X60.8 Y202.324
G1 F1350 X60.8 Y104.868 E136.60168
G0 F9000 X62.4 Y104.029
G1 F1350 X62.4 Y202.759 E147.63516
G0 F9000 X64 Y203.026
G1 F1350 X64 Y103.189 E158.79235
G0 F9000 X65.6 Y102.35
G1 F1350 X65.6 Y203.25 E170.06833
G0 F9000 X67.2 Y203.474
G1 F1350 X67.2 Y101.511 E181.46311
G0 F9000 X68.8 Y100.672
G1 F1350 X68.8 Y203.698 E192.97668
G0 F9000 X70.4 Y203.865
G1 F1350 X70.4 Y99.832 E204.60279
G0 F9000 X72 Y98.993
G1 F1350 X72 Y203.879 E216.32423
G0 F9000 X73.6 Y203.837
G1 F1350 X73.6 Y98.154 E228.13473
G0 F9000 X75.2 Y97.315
G1 F1350 X75.2 Y203.794 E240.03419
G0 F9000 X76.8 Y203.752
G1 F1350 X76.8 Y96.475 E252.02283
G0 F9000 X78.4 Y95.636
G1 F1350 X78.4 Y203.662 E264.09518
G0 F9000 X80 Y203.431
G1 F1350 X80 Y94.797 E276.23547
G0 F9000 X81.6 Y93.958
G1 F1350 X81.6 Y203.121 E288.43487
G0 F9000 X83.2 Y202.811
G1 F1350 X83.2 Y93.118 E300.69351
G0 F9000 X84.8 Y92.279
G1 F1350 X84.8 Y202.501 E313.01127
G0 F9000 X86.4 Y202.142
G1 F1350 X86.4 Y91.44 E325.38266
G0 F9000 X88 Y90.601
G1 F1350 X88 Y201.632 E337.79083
G0 F9000 X89.6 Y201.036
G1 F1350 X89.6 Y89.762 E350.22615
G0 F9000 X91.2 Y88.922
G1 F1350 X91.2 Y200.44 E362.68874
G0 F9000 X92.8 Y199.843
G1 F1350 X92.8 Y88.083 E375.17837
G0 F9000 X94.4 Y87.244
G1 F1350 X94.4 Y199.178 E387.68745
G0 F9000 X96 Y198.308
G1 F1350 X96 Y86.405 E400.19306
G0 F9000 X97.6 Y85.565
G1 F1350 X97.6 Y197.388 E412.68974
G0 F9000 X99.2 Y196.468
G1 F1350 X99.2 Y84.726 E425.17736
G0 F9000 X100.8 Y83.887
G1 F1350 X100.8 Y195.534 E437.65436
G0 F9000 X102.4 Y194.524
G1 F1350 X102.4 Y83.048 E450.11226
G0 F9000 X104 Y82.208
G1 F1350 X104 Y193.512 E462.55093
G0 F9000 X105.6 Y192.499
G1 F1350 X105.6 Y81.369 E474.97016
G0 F9000 X107.2 Y80.53
G1 F1350 X107.2 Y191.487 E487.37005
G0 F9000 X108.8 Y190.475
G1 F1350 X108.8 Y79.691 E499.75061
G0 F9000 X110.4 Y78.851
G1 F1350 X110.4 Y189.462 E512.11184
G0 F9000 X112 Y188.45
G1 F1350 X112 Y78.012 E524.45374
G0 F9000 X113.6 Y77.173
G1 F1350 X113.6 Y187.438 E536.7763
G0 F9000 X115.2 Y186.425
G1 F1350 X115.2 Y76.334 E549.07941
G0 F9000 X116.8 Y75.494
G1 F1350 X116.8 Y185.413 E561.36331
G0 F9000 X118.4 Y184.401
G1 F1350 X118.4 Y74.655 E573.62787
G0 F9000 X120 Y73.816
G1 F1350 X120 Y183.389 E585.87309
G0 F9000 X121.6 Y182.376
G1 F1350 X121.6 Y72.977 E598.09887
G0 F9000 X123.2 Y72.137
G1 F1350 X123.2 Y181.364 E610.30543
G0 F9000 X124.8 Y180.352
G1 F1350 X124.8 Y71.298 E622.49266
G0 F9000 X126.4 Y70.459
G1 F1350 X126.4 Y179.339 E634.66044
G0 F9000 X128 Y178.329
G1 F1350 X128 Y69.62 E646.80911
G0 F9000 X129.6 Y68.78
G1 F1350 X129.6 Y177.317 E658.93856
G0 F9000 X131.2 Y176.305
G1 F1350 X131.2 Y67.942 E671.04857
G0 F9000 X132.8 Y67.102
G1 F1350 X132.8 Y175.292 E683.13924
G0 F9000 X134.4 Y174.28
G1 F1350 X134.4 Y66.263 E695.21058
G0 F9000 X136 Y65.424
G1 F1350 X136 Y173.268 E707.26258
G0 F9000 X137.6 Y172.255
G1 F1350 X137.6 Y64.584 E719.29525
G0 F9000 X139.2 Y63.745
G1 F1350 X139.2 Y171.243 E731.30859
G0 F9000 X140.8 Y170.231
G1 F1350 X140.8 Y62.906 E743.30259
G0 F9000 X142.4 Y62.066
G1 F1350 X142.4 Y169.218 E755.27726
G0 F9000 X144 Y168.206
G1 F1350 X144 Y61.227 E767.2326
G0 F9000 X145.6 Y60.388
G1 F1350 X145.6 Y167.194 E779.1686
G0 F9000 X147.2 Y166.181
G1 F1350 X147.2 Y59.549 E791.08516
G0 F9000 X148.8 Y58.709
G1 F1350 X148.8 Y165.169 E802.9825
G0 F9000 X150.4 Y164.157
G1 F1350 X150.4 Y57.87 E814.8605
G0 F9000 X152 Y57.031
G1 F1350 X152 Y163.144 E826.71906
G0 F9000 X153.6 Y162.132
G1 F1350 X153.6 Y56.191 E838.5584
G0 F9000 X155.2 Y55.352
G1 F1350 X155.2 Y161.12 E850.3784
G0 F9000 X156.8 Y160.107
G1 F1350 X156.8 Y54.513 E862.17896
G0 F9000 X158.4 Y53.674
G1 F1350 X158.4 Y159.095 E873.96018
G0 F9000 X160 Y158.083
G1 F1350 X160 Y52.834 E885.72218
G0 F9000 X161.6 Y51.995
G1 F1350 X161.6 Y157.07 E897.46474
G0 F9000 X163.2 Y156.058
G1 F1350 X163.2 Y51.156 E909.18796
G0 F9000 X164.8 Y50.316
G1 F1350 X164.8 Y155.046 E920.89197
G0 F9000 X166.4 Y154.033
G1 F1350 X166.4 Y49.477 E932.57652
G0 F9000 X168 Y48.638
G1 F1350 X168 Y153.021 E944.24175
G0 F9000 X169.6 Y152.009
G1 F1350 X169.6 Y47.799 E955.88764
G0 F9000 X171.2 Y46.959
G1 F1350 X171.2 Y150.996 E967.51419
G0 F9000 X172.8 Y149.984
G1 F1350 X172.8 Y46.12 E979.12142
G0 F9000 X174.4 Y45.281
G1 F1350 X174.4 Y148.972 E990.70931
G0 F9000 X176 Y147.959
G1 F1350 X176 Y44.441 E1002.27786
G0 F9000 X177.6 Y43.602
G1 F1350 X177.6 Y146.947 E1013.82708
G0 F9000 X179.2 Y145.935
G1 F1350 X179.2 Y42.763 E1025.35697
G0 F9000 X180.8 Y41.924
G1 F1350 X180.8 Y144.922 E1036.86742
G0 F9000 X182.4 Y143.91
G1 F1350 X182.4 Y41.085 E1048.35853
G0 F9000 X184 Y40.245
G1 F1350 X184 Y142.898 E1059.83042
G0 F9000 X185.6 Y141.885
G1 F1350 X185.6 Y39.406 E1071.28286
G0 F9000 X187.2 Y38.567
G1 F1350 X187.2 Y140.873 E1082.71597
G0 F9000 X188.8 Y139.861
G1 F1350 X188.8 Y37.728 E1094.12975
G0 F9000 X190.4 Y36.889
G1 F1350 X190.4 Y138.848 E1105.52408
G0 F9000 X192 Y137.836
G1 F1350 X192 Y36.05 E1116.89908
G0 F9000 X193.6 Y35.21
G1 F1350 X193.6 Y136.823 E1128.25474
G0 F9000 X195.2 Y135.811
G1 F1350 X195.2 Y34.371 E1139.59107
G0 F9000 X196.8 Y33.532
G1 F1350 X196.8 Y134.799 E1150.90807
G0 F9000 X198.4 Y133.786
G1 F1350 X198.4 Y32.693 E1162.20562
G0 F9000 X200 Y31.854
G1 F1350 X200 Y132.774 E1173.48384
G0 F9000 X201.6 Y131.762
G1 F1350 X201.6 Y31.014 E1184.74284
G0 F9000 X203.2 Y30.175
G1 F1350 X203.2 Y130.749 E1195.98239
G0 F9000 X204.8 Y129.737
G1 F1350 X204.8 Y29.336 E1207.20261
G0 F9000 X206.4 Y28.497
G1 F1350 X206.4 Y128.725 E1218.4035
G0 F9000 X208 Y127.712
G1 F1350 X208 Y27.658 E1229.58494
G0 F9000 X209.6 Y26.819
G1 F1350 X209.6 Y126.7 E1240.74704
G0 F9000 X211.2 Y125.688
G1 F1350 X211.2 Y25.979 E1251.88993
G0 F9000 X212.8 Y25.14
G1 F1350 X212.8 Y124.675 E1263.01337
G0 F9000 X214.4 Y123.663
G1 F1350 X214.4 Y24.368 E1274.10999
G0 F9000 X216 Y23.612
G1 F1350 X216 Y122.65 E1285.17788
G0 F9000 X217.6 Y121.638
G1 F1350 X217.6 Y22.861 E1296.21661
G0 F9000 X219.2 Y22.245
G1 F1350 X219.2 Y120.626 E1307.21109
G0 F9000 X220.8 Y119.613
G1 F1350 X220.8 Y21.761 E1318.14645
G0 F9000 X222.4 Y21.309
G1 F1350 X222.4 Y118.601 E1329.01922
G0 F9000 X224 Y117.589
G1 F1350 X224 Y20.856 E1339.82953
G0 F9000 X225.6 Y20.498
G1 F1350 X225.6 Y116.576 E1350.56663
G0 F9000 X227.2 Y115.564
G1 F1350 X227.2 Y20.277 E1361.21534
G0 F9000 X228.8 Y20.1
G1 F1350 X228.8 Y114.551 E1371.77062
G0 F9000 X230.4 Y113.539
G1 F1350 X230.4 Y19.923 E1382.23259
G0 F9000 X232 Y19.781
G1 F1350 X232 Y112.526 E1392.59722
G0 F9000 X233.6 Y111.514
G1 F1350 X233.6 Y19.796 E1402.84708
G0 F9000 X235.2 Y19.884
G1 F1350 X235.2 Y110.502 E1412.97401
G0 F9000 X236.8 Y109.489
G1 F1350 X236.8 Y19.972 E1422.9779
G0 F9000 X238.4 Y20.074
G1 F1350 X238.4 Y108.477 E1432.85729
G0 F9000 X240 Y107.464
G1 F1350 X240 Y20.304 E1442.59777
G0 F9000 X241.6 Y20.644
G1 F1350 X241.6 Y106.452 E1452.18717
G0 F9000 X243.2 Y105.44
G1 F1350 X243.2 Y21.002 E1461.62345
G0 F9000 X244.8 Y21.359
G1 F1350 X244.8 Y104.427 E1470.90664
G0 F9000 X246.4 Y103.415
G1 F1350 X246.4 Y21.833 E1480.02376
G0 F9000 X248 Y22.446
G1 F1350 X248 Y102.402 E1488.95917
G0 F9000 X249.6 Y101.39
G1 F1350 X249.6 Y23.096 E1497.70884
G0 F9000 X251.2 Y23.747
G1 F1350 X251.2 Y100.378 E1506.27266
G0 F9000 X252.8 Y99.365
G1 F1350 X252.8 Y24.516 E1514.63734
G0 F9000 X254.4 Y25.458
G1 F1350 X254.4 Y98.353 E1522.78365
G0 F9000 X256 Y97.294
G1 F1350 X256 Y26.441 E1530.70176
G0 F9000 X257.6 Y27.436
G1 F1350 X257.6 Y96.181 E1538.3843
G0 F9000 X259.2 Y95.067
G1 F1350 X259.2 Y28.626 E1545.80935
G0 F9000 X260.8 Y30.017
G1 F1350 X260.8 Y93.776 E1552.93467
G0 F9000 X262.4 Y92.236
G1 F1350 X262.4 Y31.41 E1559.73223
G0 F9000 X264 Y32.982
G1 F1350 X264 Y90.674 E1566.17954
G0 F9000 X265.6 Y88.933
G1 F1350 X265.6 Y34.882 E1572.21996
G0 F9000 X267.2 Y36.825
G1 F1350 X267.2 Y86.784 E1577.80308
G0 F9000 X268.8 Y84.571
G1 F1350 X268.8 Y39.165 E1582.87738
G0 F9000 X270.4 Y41.937
G1 F1350 X270.4 Y81.754 E1587.3271
G0 F9000 X272 Y78.556
G1 F1350 X272 Y45.184 E1591.05655
G1 F1500 E1584.55655
G0 F9000 X273.284 Y45.558
G0 X274.529 Y48.887
G0 X273.6 Y49.466
G1 F1500 E1591.05655
G1 F1350 X273.6 Y74.016 E1593.80011
G1 F1500 E1587.30011
G0 F9000 X274.617 Y74.33
G0 X275.536 Y71.167
G0 X275.596 Y70.805
G0 X276.254 Y66.299
G0 X275.2 Y66.156
G1 F1500 E1593.80011
G1 F1350 X275.2 Y56.947 E1594.82926
G1 F1500 E1588.32926
G0 F9000 X276.256 Y56.823
G0 X275.215 Y51.307
G0 X274.852 Y49.855
G0 X272.852 Y44.431
G0 X272.28 Y43.134
G0 X269.5 Y38.258
G0 X268.711 Y37.042
G0 X265.131 Y32.644
G0 X264.14 Y31.561
G0 X259.878 Y27.805
G0 X258.727 Y26.907
G0 X253.904 Y23.909
G0 X252.63 Y23.215
G0 X247.398 Y21.056
G0 X246.01 Y20.576
G0 X240.508 Y19.31
G0 X239.046 Y19.064
G0 X233.389 Y18.722
G0 X231.915 Y18.72
G0 X226.289 Y19.312
G0 X224.834 Y19.552
G0 X219.367 Y21.066
G0 X218.011 Y21.528
G0 X212.913 Y23.911
G0 X50.899 Y108.861
G0 X51.2 Y109.91
G1 F1500 E1594.82926
G1 F1350 X51.2 Y198.682 E1604.74989
G0 F9000 X49.6 Y197.871
G1 F1350 X49.6 Y110.828 E1614.4773
G0 F9000 X48 Y111.756
G1 F1350 X48 Y197.051 E1624.00936
G0 F9000 X46.4 Y196.059
G1 F1350 X46.4 Y112.683 E1633.32696
G0 F9000 X44.8 Y113.68
G1 F1350 X44.8 Y194.899 E1642.40352
G0 F9000 X43.2 Y193.721
G1 F1350 X43.2 Y114.94 E1651.20761
G0 F9000 X41.6 Y116.261
G1 F1350 X41.6 Y192.543 E1659.73244
G0 F9000 X40 Y191.176
