;FLAVOR:Marlin
;TIME:21729
;Filament used: 29.9162m
;Layer height: 0.28
;MINX:15.309
;MINY:92.166
;MINZ:0.28
;MAXX:284.702
;MAXY:183.932
;MAXZ:19.88
;Generated with Cura_SteamEngine 4.4.0
M140 S60
M105
M190 S60
M104 S200
M105
M109 S200
M82 ;absolute extrusion mode
M201 X500.00 Y500.00 Z100.00 E5000.00 ;Setup machine max acceleration
M203 X500.00 Y500.00 Z10.00 E50.00 ;Setup machine max feedrate
M204 P500.00 R1000.00 T500.00 ;Setup Print/Retract/Travel acceleration
M205 X8.00 Y8.00 Z0.40 E5.00 ;Setup Jerk
M220 S100 ;Reset Feedrate
M221 S100 ;Reset Flowrate

G28 ;Home

G92 E0 ;Reset Extruder
G1 Z2.0 F3000 ;Move Z Axis up
G1 X10.1 Y20 Z0.28 F5000.0 ;Move to start position
G1 X10.1 Y200.0 Z0.28 F1500.0 E15 ;Draw the first line
G1 X10.4 Y200.0 Z0.28 F5000.0 ;Move to side a little
G1 X10.4 Y20 Z0.28 F1500.0 E30 ;Draw the second line
G92 E0 ;Reset Extruder
G1 Z2.0 F3000 ;Move Z Axis up

G92 E0
G92 E0
G1 F1500 E-6.5
;LAYER_COUNT:71
;LAYER:0
M107
G0 F6000 X42.943 Y95.882 Z0.28
;TYPE:SKIRT
G1 F1500 E0
G1 F1200 X43.426 Y95.692 E0.02417
G1 X44.007 Y95.48 E0.05297
G1 X44.194 Y95.414 E0.0622
G1 X48.376 Y93.973 E0.26817
G1 X48.513 Y93.927 E0.2749
G1 X49.216 Y93.695 E0.30937
G1 X50.118 Y93.439 E0.35303
G1 X50.633 Y93.33 E0.37754
G1 X51.171 Y93.229 E0.40303
G1 X51.375 Y93.193 E0.41268
G1 X55.843 Y92.441 E0.62365
G1 X56.001 Y92.415 E0.63111
G1 X56.666 Y92.313 E0.66243
G1 X57.599 Y92.211 E0.70614
G1 X58.084 Y92.189 E0.72874
G1 X58.701 Y92.175 E0.75748
G1 X58.935 Y92.172 E0.76838
G1 X63.067 Y92.166 E0.96078
G1 X63.293 Y92.168 E0.97131
G1 X65.388 Y92.208 E1.06888
G1 X65.624 Y92.215 E1.07987
G1 X153.649 Y95.783 E5.18205
G1 X205.879 Y97.902 E7.6161
G1 X245.7 Y99.516 E9.47185
G1 X245.926 Y99.528 E9.48239
G1 X248.016 Y99.656 E9.57989
G1 X248.249 Y99.672 E9.59077
G1 X251.035 Y99.902 E9.72093
G1 X251.187 Y99.916 E9.72804
G1 X251.86 Y99.981 E9.75953
G1 X252.789 Y100.111 E9.80321
G1 X253.322 Y100.222 E9.82856
G1 X253.964 Y100.373 E9.85927
G1 X254.141 Y100.416 E9.86775
G1 X257.199 Y101.189 E10.01462
G1 X257.375 Y101.236 E10.0231
G1 X258.096 Y101.431 E10.05788
G1 X258.99 Y101.714 E10.10155
G1 X259.49 Y101.91 E10.12655
G1 X260.07 Y102.154 E10.15585
G1 X260.22 Y102.218 E10.16345
G1 X263.161 Y103.507 E10.31297
G1 X263.293 Y103.566 E10.3197
G1 X263.914 Y103.848 E10.35146
G1 X264.751 Y104.272 E10.39515
G1 X265.199 Y104.538 E10.41941
G1 X265.677 Y104.837 E10.44566
G1 X265.86 Y104.954 E10.45578
G1 X268.608 Y106.749 E10.60861
G1 X268.734 Y106.832 E10.61564
G1 X269.315 Y107.223 E10.64825
G1 X270.07 Y107.779 E10.69191
G1 X270.479 Y108.126 E10.71689
G1 X270.963 Y108.556 E10.74703
G1 X271.108 Y108.687 E10.75613
G1 X273.457 Y110.85 E10.90482
G1 X273.559 Y110.945 E10.91131
G1 X274.064 Y111.422 E10.94366
G1 X274.718 Y112.095 E10.98735
G1 X275.063 Y112.501 E11.01216
G1 X275.427 Y112.951 E11.03911
G1 X275.554 Y113.111 E11.04862
G1 X277.583 Y115.717 E11.20241
G1 X277.676 Y115.838 E11.20952
G1 X278.074 Y116.364 E11.24023
G1 X278.607 Y117.135 E11.28388
G1 X278.868 Y117.571 E11.30754
G1 X279.149 Y118.066 E11.33404
G1 X279.257 Y118.26 E11.34438
G1 X280.83 Y121.166 E11.49825
G1 X280.9 Y121.297 E11.50517
G1 X281.207 Y121.883 E11.53597
G1 X281.606 Y122.732 E11.57965
G1 X281.8 Y123.227 E11.60441
G1 X282.011 Y123.807 E11.63315
G1 X282.078 Y123.996 E11.64248
G1 X283.124 Y127.043 E11.79249
G1 X283.173 Y127.188 E11.79962
G1 X283.391 Y127.853 E11.83221
G1 X283.742 Y129.214 E11.89765
G1 X283.855 Y129.805 E11.92567
G1 X283.894 Y130.018 E11.93576
G1 X283.941 Y130.293 E11.94875
G1 X283.949 Y130.34 E11.95097
G1 X284.439 Y133.284 E12.08994
G1 X284.463 Y133.434 E12.09701
G1 X284.567 Y134.117 E12.12918
G1 X284.668 Y135.049 E12.17283
G1 X284.69 Y135.574 E12.1973
G1 X284.7 Y136.128 E12.2231
G1 X284.702 Y136.327 E12.23237
G1 X284.702 Y139.57 E12.38338
G1 X284.701 Y139.728 E12.39073
G1 X284.691 Y140.426 E12.42324
G1 X284.608 Y141.628 E12.47934
G1 X284.573 Y141.909 E12.49253
G1 X284.522 Y142.266 E12.50932
G1 X284.388 Y143.114 E12.5493
G1 X284.373 Y143.209 E12.55377
G1 X283.923 Y145.903 E12.68096
G1 X283.895 Y146.064 E12.68856
G1 X283.767 Y146.766 E12.72179
G1 X283.559 Y147.681 E12.76549
G1 X283.412 Y148.175 E12.78948
G1 X283.233 Y148.729 E12.81659
G1 X283.172 Y148.913 E12.82562
G1 X282.125 Y151.968 E12.976
G1 X282.074 Y152.114 E12.9832
G1 X281.851 Y152.736 E13.01397
G1 X281.305 Y154.001 E13.07812
G1 X281.031 Y154.541 E13.10632
G1 X280.902 Y154.788 E13.11929
G1 X279.363 Y157.64 E13.2702
G1 X279.294 Y157.767 E13.27693
G1 X278.946 Y158.392 E13.31024
G1 X278.455 Y159.191 E13.3539
G1 X278.145 Y159.627 E13.37882
G1 X277.763 Y160.138 E13.40852
G1 X277.642 Y160.297 E13.41783
G1 X275.651 Y162.862 E13.56902
G1 X275.555 Y162.985 E13.57629
G1 X275.145 Y163.498 E13.60687
G1 X274.529 Y164.205 E13.65053
G1 X274.152 Y164.583 E13.67539
G1 X273.724 Y164.992 E13.70296
G1 X273.586 Y165.121 E13.71175
G1 X271.199 Y167.325 E13.86304
G1 X271.077 Y167.436 E13.87072
G1 X270.549 Y167.909 E13.90372
G1 X269.824 Y168.505 E13.94743
G1 X269.4 Y168.808 E13.97169
G1 X268.933 Y169.126 E13.998
G1 X268.772 Y169.234 E14.00703
G1 X266.024 Y171.035 E14.16002
G1 X265.895 Y171.118 E14.16716
G1 X265.324 Y171.481 E14.19867
G1 X264.512 Y171.95 E14.24233
G1 X264.042 Y172.181 E14.26672
G1 X263.48 Y172.441 E14.29555
G1 X263.295 Y172.525 E14.30501
G1 X260.337 Y173.828 E14.45552
G1 X260.197 Y173.888 E14.46261
G1 X259.579 Y174.15 E14.49387
G1 X258.7 Y174.479 E14.53757
G1 X258.224 Y174.623 E14.56073
G1 X257.6 Y174.796 E14.59088
G1 X257.376 Y174.856 E14.60168
G1 X254.298 Y175.64 E14.74958
G1 X254.16 Y175.674 E14.7562
G1 X253.438 Y175.848 E14.79078
G1 X252.518 Y176.028 E14.83443
G1 X251.961 Y176.099 E14.86058
G1 X251.374 Y176.158 E14.88805
G1 X251.198 Y176.174 E14.89628
G1 X247.935 Y176.449 E15.04875
G1 X247.781 Y176.461 E15.05595
G1 X246.784 Y176.531 E15.10249
G1 X246.46 Y176.549 E15.1176
G1 X205.88 Y178.195 E17.00872
G1 X153.652 Y180.314 E19.44268
G1 X96.855 Y182.617 E22.08956
G1 X96.828 Y182.618 E22.09082
G1 X96.514 Y182.63 E22.10545
G1 X65.619 Y183.883 E23.54523
G1 X65.384 Y183.89 E23.55618
G1 X63.296 Y183.93 E23.65342
G1 X63.069 Y183.932 E23.66399
G1 X59.024 Y183.926 E23.85235
G1 X58.874 Y183.925 E23.85933
G1 X58.213 Y183.915 E23.89011
G1 X57.276 Y183.861 E23.93382
G1 X56.767 Y183.797 E23.9577
G1 X56.119 Y183.701 E23.98821
G1 X55.905 Y183.667 E23.9983
G1 X51.522 Y182.929 E24.20526
G1 X51.373 Y182.903 E24.2123
G1 X50.699 Y182.78 E24.24421
G1 X49.785 Y182.573 E24.28784
G1 X49.276 Y182.421 E24.31258
G1 X48.691 Y182.231 E24.34122
G1 X48.507 Y182.169 E24.35026
G1 X44.251 Y180.703 E24.55987
G1 X44.099 Y180.65 E24.56736
G1 X43.481 Y180.427 E24.59795
G1 X42.614 Y180.071 E24.6416
G1 X42.157 Y179.848 E24.66527
G1 X41.653 Y179.587 E24.6917
G1 X41.465 Y179.488 E24.7016
G1 X37.48 Y177.326 E24.9127
G1 X37.347 Y177.252 E24.91979
G1 X36.753 Y176.919 E24.9515
G1 X35.955 Y176.426 E24.99518
G1 X35.512 Y176.109 E25.02054
G1 X35.013 Y175.733 E25.04964
G1 X34.867 Y175.621 E25.0582
G1 X31.357 Y172.883 E25.26549
G1 X31.24 Y172.79 E25.27245
G1 X30.699 Y172.356 E25.30474
G1 X29.993 Y171.739 E25.3484
G1 X29.61 Y171.356 E25.37363
G1 X29.185 Y170.909 E25.40235
G1 X29.058 Y170.773 E25.41101
G1 X26.033 Y167.482 E25.61915
G1 X25.918 Y167.355 E25.62713
G1 X25.461 Y166.842 E25.65912
G1 X24.868 Y166.116 E25.70277
G1 X24.579 Y165.71 E25.72598
G1 X24.239 Y165.21 E25.75413
G1 X24.124 Y165.038 E25.76377
G1 X21.681 Y161.296 E25.97186
G1 X21.586 Y161.148 E25.98005
G1 X21.211 Y160.553 E26.0128
G1 X20.745 Y159.739 E26.05647
G1 X20.526 Y159.289 E26.07977
G1 X20.287 Y158.77 E26.10638
G1 X20.202 Y158.583 E26.11594
G1 X18.409 Y154.49 E26.32402
G1 X18.35 Y154.352 E26.33101
G1 X18.061 Y153.667 E26.36562
G1 X17.734 Y152.788 E26.40929
G1 X17.578 Y152.263 E26.4348
G1 X17.446 Y151.775 E26.45834
G1 X17.401 Y151.604 E26.46657
G1 X16.283 Y147.19 E26.6786
G1 X16.248 Y147.049 E26.68536
G1 X16.086 Y146.372 E26.71777
G1 X15.907 Y145.451 E26.76146
G1 X15.839 Y144.908 E26.78694
G1 X15.783 Y144.349 E26.8131
G1 X15.766 Y144.161 E26.82189
G1 X15.392 Y139.647 E27.0328
G1 X15.38 Y139.488 E27.04023
G1 X15.333 Y138.799 E27.07239
G1 X15.309 Y137.861 E27.11608
G1 X15.33 Y137.339 E27.1404
G1 X15.368 Y136.752 E27.16779
G1 X15.383 Y136.554 E27.17704
G1 X15.755 Y132.068 E27.38664
G1 X15.768 Y131.923 E27.39342
G1 X15.833 Y131.248 E27.425
G1 X15.962 Y130.319 E27.46867
G1 X16.064 Y129.827 E27.49207
G1 X16.182 Y129.316 E27.51649
G1 X16.237 Y129.091 E27.52728
G1 X17.343 Y124.723 E27.73709
G1 X17.38 Y124.581 E27.74392
G1 X17.575 Y123.852 E27.77906
G1 X17.855 Y122.957 E27.82273
G1 X18.054 Y122.448 E27.84817
G1 X18.285 Y121.896 E27.87604
G1 X18.356 Y121.729 E27.88449
G1 X20.153 Y117.626 E28.09306
G1 X20.219 Y117.478 E28.10061
G1 X20.507 Y116.846 E28.13295
G1 X20.932 Y116.01 E28.17661
G1 X21.214 Y115.537 E28.20226
G1 X21.532 Y115.033 E28.23001
G1 X21.623 Y114.891 E28.23786
G1 X24.092 Y111.108 E28.44821
G1 X24.173 Y110.987 E28.45499
G1 X24.531 Y110.454 E28.48489
G1 X25.086 Y109.698 E28.52856
G1 X25.424 Y109.298 E28.55294
G1 X25.839 Y108.829 E28.5821
G1 X25.981 Y108.672 E28.59196
G1 X28.983 Y105.408 E28.79845
G1 X29.086 Y105.297 E28.8055
G1 X29.588 Y104.766 E28.83953
G1 X30.26 Y104.113 E28.88316
G1 X30.673 Y103.763 E28.90837
G1 X31.16 Y103.37 E28.93751
G1 X31.303 Y103.256 E28.94602
G1 X34.796 Y100.532 E29.15228
G1 X34.944 Y100.419 E29.16096
G1 X35.507 Y99.995 E29.19377
G1 X36.664 Y99.233 E29.25828
G1 X37.138 Y98.962 E29.28371
G1 X37.35 Y98.843 E29.29503
G1 X41.357 Y96.668 E29.50733
G1 X41.502 Y96.591 E29.51497
G1 X42.094 Y96.281 E29.54609
G1 X42.943 Y95.882 E29.58977
G0 F6000 X43.113 Y96.244
G1 F1200 X43.564 Y96.068 E29.61231
G1 X44.145 Y95.856 E29.64111
G1 X44.325 Y95.792 E29.65
G1 X48.507 Y94.351 E29.85597
G1 X48.638 Y94.307 E29.86241
G1 X49.341 Y94.075 E29.89688
G1 X50.227 Y93.825 E29.93975
G1 X50.707 Y93.723 E29.96259
G1 X51.245 Y93.622 E29.98808
G1 X51.442 Y93.587 E29.9974
G1 X55.91 Y92.835 E30.20838
G1 X56.062 Y92.811 E30.21554
G1 X56.727 Y92.709 E30.24687
G1 X58.094 Y92.589 E30.31077
G1 X58.711 Y92.575 E30.3395
G1 X58.936 Y92.572 E30.34998
G1 X63.068 Y92.566 E30.54239
G1 X63.285 Y92.568 E30.55249
G1 X65.38 Y92.608 E30.65006
G1 X65.607 Y92.615 E30.66064
G1 X153.632 Y96.183 E34.76281
G1 X205.862 Y98.302 E37.19686
G1 X245.683 Y99.916 E39.05262
G1 X245.902 Y99.927 E39.06283
G1 X247.992 Y100.055 E39.16033
G1 X248.216 Y100.071 E39.17079
G1 X251.002 Y100.301 E39.30096
G1 X251.149 Y100.314 E39.30783
G1 X251.822 Y100.379 E39.33931
G1 X252.734 Y100.507 E39.38219
G1 X253.23 Y100.612 E39.4058
G1 X253.872 Y100.763 E39.43651
G1 X254.043 Y100.804 E39.4447
G1 X257.101 Y101.577 E39.59157
G1 X257.27 Y101.622 E39.59971
G1 X257.991 Y101.817 E39.63449
G1 X258.869 Y102.095 E39.67738
G1 X259.334 Y102.278 E39.70065
G1 X259.914 Y102.522 E39.72995
G1 X260.059 Y102.585 E39.73731
G1 X263 Y103.874 E39.88683
G1 X263.128 Y103.931 E39.89335
G1 X263.749 Y104.213 E39.92511
G1 X264.57 Y104.629 E39.96797
G1 X264.987 Y104.877 E39.99056
G1 X265.465 Y105.176 E40.01681
G1 X265.641 Y105.289 E40.02655
G1 X268.389 Y107.084 E40.17939
G1 X268.51 Y107.164 E40.18614
G1 X269.091 Y107.555 E40.21875
G1 X269.832 Y108.102 E40.26164
G1 X270.213 Y108.425 E40.2849
G1 X270.697 Y108.855 E40.31505
G1 X270.837 Y108.981 E40.32382
G1 X273.186 Y111.144 E40.4725
G1 X273.285 Y111.236 E40.4788
G1 X273.79 Y111.713 E40.51114
G1 X274.431 Y112.374 E40.55402
G1 X274.752 Y112.753 E40.57714
G1 X275.116 Y113.203 E40.6041
G1 X275.239 Y113.357 E40.61327
G1 X277.268 Y115.963 E40.76706
G1 X277.357 Y116.079 E40.77387
G1 X277.755 Y116.605 E40.80458
G1 X278.278 Y117.363 E40.84747
G1 X278.52 Y117.768 E40.86944
G1 X278.801 Y118.263 E40.89594
G1 X278.905 Y118.45 E40.9059
G1 X280.478 Y121.356 E41.05977
G1 X280.546 Y121.483 E41.06648
G1 X280.853 Y122.069 E41.09728
G1 X281.244 Y122.902 E41.14013
G1 X281.424 Y123.364 E41.16322
G1 X281.635 Y123.944 E41.19196
G1 X281.7 Y124.126 E41.20096
G1 X282.746 Y127.173 E41.35097
G1 X282.793 Y127.313 E41.35784
G1 X283.011 Y127.978 E41.39043
G1 X283.349 Y129.289 E41.45347
G1 X283.462 Y129.88 E41.48149
G1 X283.499 Y130.085 E41.49119
G1 X283.546 Y130.36 E41.50418
G1 X283.554 Y130.406 E41.50635
G1 X284.044 Y133.35 E41.64532
G1 X284.067 Y133.494 E41.65211
G1 X284.171 Y134.177 E41.68428
G1 X284.27 Y135.093 E41.72718
G1 X284.29 Y135.582 E41.74997
G1 X284.3 Y136.136 E41.77577
G1 X284.302 Y136.327 E41.78467
G1 X284.302 Y139.57 E41.93568
G1 X284.301 Y139.722 E41.94275
G1 X284.291 Y140.42 E41.97526
G1 X284.211 Y141.578 E42.02931
G1 X284.176 Y141.859 E42.0425
G1 X284.127 Y142.203 E42.05867
G1 X283.993 Y143.051 E42.09865
G1 X283.978 Y143.143 E42.10299
G1 X283.528 Y145.837 E42.23017
G1 X283.501 Y145.992 E42.2375
G1 X283.373 Y146.694 E42.27073
G1 X283.169 Y147.592 E42.31361
G1 X283.032 Y148.052 E42.33596
G1 X282.853 Y148.606 E42.36307
G1 X282.793 Y148.784 E42.37181
G1 X281.746 Y151.839 E42.52219
G1 X281.697 Y151.979 E42.5291
G1 X281.474 Y152.601 E42.55986
G1 X280.949 Y153.82 E42.62167
G1 X280.675 Y154.36 E42.64986
G1 X280.55 Y154.598 E42.66238
G1 X279.011 Y157.45 E42.81328
G1 X278.944 Y157.573 E42.8198
G1 X278.596 Y158.198 E42.85311
G1 X278.114 Y158.982 E42.89597
G1 X277.825 Y159.388 E42.91917
G1 X277.443 Y159.899 E42.94888
G1 X277.326 Y160.052 E42.95785
G1 X275.335 Y162.617 E43.10905
G1 X275.242 Y162.735 E43.11604
G1 X274.832 Y163.248 E43.14662
G1 X274.227 Y163.941 E43.18946
G1 X273.875 Y164.294 E43.21267
G1 X273.447 Y164.703 E43.24024
G1 X273.315 Y164.827 E43.24867
G1 X270.928 Y167.031 E43.39995
G1 X270.81 Y167.138 E43.40737
G1 X270.282 Y167.611 E43.44038
G1 X269.57 Y168.195 E43.48326
G1 X269.175 Y168.478 E43.50588
G1 X268.708 Y168.796 E43.53219
G1 X268.552 Y168.9 E43.54092
G1 X265.804 Y170.701 E43.69391
G1 X265.681 Y170.78 E43.70072
G1 X265.11 Y171.143 E43.73223
G1 X264.312 Y171.603 E43.77512
G1 X263.874 Y171.818 E43.79783
G1 X263.312 Y172.078 E43.82667
G1 X263.134 Y172.159 E43.83577
G1 X260.176 Y173.462 E43.98628
G1 X260.04 Y173.52 E43.99317
G1 X259.422 Y173.782 E44.02442
G1 X258.56 Y174.104 E44.06727
G1 X258.117 Y174.238 E44.08882
G1 X257.493 Y174.411 E44.11897
G1 X257.277 Y174.468 E44.12938
G1 X254.199 Y175.252 E44.27728
G1 X254.066 Y175.285 E44.28366
G1 X253.344 Y175.459 E44.31824
G1 X252.441 Y175.636 E44.36109
G1 X251.921 Y175.701 E44.38549
G1 X251.334 Y175.76 E44.41296
G1 X251.164 Y175.776 E44.42091
G1 X247.901 Y176.051 E44.57339
G1 X247.753 Y176.062 E44.5803
G1 X246.756 Y176.132 E44.62684
G1 X246.444 Y176.149 E44.64139
G1 X205.864 Y177.795 E46.53252
G1 X153.636 Y179.914 E48.96647
G1 X96.839 Y182.217 E51.61335
G1 X96.813 Y182.218 E51.61456
G1 X96.498 Y182.23 E51.62924
G1 X65.603 Y183.483 E53.06902
G1 X65.376 Y183.49 E53.0796
G1 X63.288 Y183.53 E53.17684
G1 X63.069 Y183.532 E53.18704
G1 X59.024 Y183.526 E53.37539
G1 X58.88 Y183.525 E53.3821
G1 X58.219 Y183.515 E53.41288
G1 X57.3 Y183.461 E53.45575
G1 X56.826 Y183.402 E53.47799
G1 X56.178 Y183.306 E53.50849
G1 X55.971 Y183.273 E53.51825
G1 X51.588 Y182.535 E53.72522
G1 X51.445 Y182.51 E53.73198
G1 X50.771 Y182.387 E53.76388
G1 X49.873 Y182.182 E53.80677
G1 X49.4 Y182.041 E53.82975
G1 X48.815 Y181.851 E53.85839
G1 X48.637 Y181.791 E53.86714
G1 X44.381 Y180.325 E54.07674
G1 X44.235 Y180.274 E54.08394
G1 X43.617 Y180.051 E54.11454
G1 X42.766 Y179.701 E54.15738
G1 X42.341 Y179.493 E54.17942
G1 X41.837 Y179.232 E54.20585
G1 X41.656 Y179.136 E54.21539
G1 X37.671 Y176.974 E54.42649
G1 X37.543 Y176.903 E54.43331
G1 X36.949 Y176.57 E54.46502
G1 X36.166 Y176.086 E54.50788
G1 X35.753 Y175.79 E54.53154
G1 X35.254 Y175.414 E54.56063
G1 X35.113 Y175.306 E54.56891
G1 X31.603 Y172.568 E54.77619
G1 X31.49 Y172.478 E54.78292
G1 X30.949 Y172.044 E54.81521
G1 X30.257 Y171.438 E54.85804
