;FLAVOR:Marlin
;TIME:27422
;Filament used: 39.2441m
;Layer height: 0.28
;MINX:23.509
;MINY:15.055
;MINZ:0.336
;MAXX:277.448
;MAXY:201.28
;MAXZ:21.346
;Generated with Cura_SteamEngine 4.4.0
M140 S60
M105
M190 S60
M104 S200
M105
M109 S200
M82 ;absolute extrusion mode
M201 X500.00 Y500.00 Z100.00 E5000.00 ;Setup machine max acceleration
M203 X500.00 Y500.00 Z10.00 E50.00 ;Setup machine max feedrate
M204 P500.00 R1000.00 T500.00 ;Setup Print/Retract/Travel acceleration
M205 X8.00 Y8.00 Z0.40 E5.00 ;Setup Jerk
M220 S100 ;Reset Feedrate
M221 S100 ;Reset Flowrate

G28 ;Home

G92 E0 ;Reset Extruder
G1 Z2.0 F3000 ;Move Z Axis up
G1 X10.1 Y20 Z0.28 F5000.0 ;Move to start position
G1 X10.1 Y200.0 Z0.28 F1500.0 E15 ;Draw the first line
G1 X10.4 Y200.0 Z0.28 F5000.0 ;Move to side a little
G1 X10.4 Y20 Z0.28 F1500.0 E30 ;Draw the second line
G92 E0 ;Reset Extruder
G1 Z2.0 F3000 ;Move Z Axis up

G92 E0
G92 E0
G1 F1500 E-6.5
;LAYER_COUNT:71
;LAYER:-6
M107
G0 F9000 X86.887 Y95.523 Z0.336
;TYPE:SUPPORT-INTERFACE
G1 F1500 E0
G1 F1350 X123.782 Y72.179 E4.87917
G1 X171.899 Y41.735 E11.24236
G1 X172.298 Y41.485 E11.29498
G1 X199.119 Y24.515 E14.84191
G1 X199.704 Y24.164 E14.91816
G1 X204.674 Y21.305 E15.55891
G1 X205.502 Y20.869 E15.66349
G1 X205.666 Y20.791 E15.68379
G1 X206.87 Y20.28 E15.82995
G1 X212.263 Y18.27 E16.47314
G1 X213.145 Y17.977 E16.57701
G1 X213.338 Y17.922 E16.59943
G1 X214.581 Y17.62 E16.74239
G1 X220.234 Y16.524 E17.3859
G1 X221.175 Y16.376 E17.49235
G1 X221.348 Y16.357 E17.5118
G1 X222.655 Y16.263 E17.65824
G1 X228.424 Y16.11 E18.30317
G1 X229.355 Y16.119 E18.40722
G1 X229.537 Y16.128 E18.42759
G1 X230.858 Y16.254 E18.57588
G1 X236.571 Y17.053 E19.22055
G1 X237.455 Y17.209 E19.32086
G1 X237.642 Y17.25 E19.34226
G1 X238.923 Y17.589 E19.49034
G1 X244.392 Y19.304 E20.13087
G1 X245.263 Y19.611 E20.23408
G1 X245.474 Y19.696 E20.2595
G1 X246.642 Y20.224 E20.40275
G1 X251.779 Y22.827 E21.04632
G1 X252.592 Y23.275 E21.15006
G1 X252.742 Y23.367 E21.16973
G1 X253.851 Y24.108 E21.31878
G1 X258.499 Y27.529 E21.96374
G1 X259.217 Y28.099 E22.06619
G1 X259.369 Y28.23 E22.08861
G1 X260.31 Y29.115 E22.23298
G1 X264.342 Y33.264 E22.87952
G1 X264.958 Y33.946 E22.98222
G1 X265.063 Y34.072 E23.00055
G1 X265.849 Y35.103 E23.14544
G1 X269.148 Y39.861 E23.79247
G1 X269.634 Y40.618 E23.893
G1 X269.737 Y40.792 E23.9156
G1 X270.353 Y41.96 E24.06317
G1 X272.815 Y47.178 E24.70795
G1 X273.179 Y48.03 E24.81149
G1 X273.245 Y48.204 E24.83229
G1 X273.644 Y49.401 E24.9733
G1 X275.225 Y54.989 E25.62229
G1 X275.442 Y55.875 E25.72423
G1 X275.48 Y56.066 E25.74599
G1 X275.686 Y57.384 E25.89507
G1 X276.32 Y63.116 E26.53955
G1 X276.385 Y63.996 E26.63817
G1 X276.392 Y64.201 E26.66109
G1 X276.379 Y65.514 E26.80783
G1 X276.068 Y71.222 E27.44667
G1 X275.98 Y72.193 E27.55563
G1 X275.957 Y72.367 E27.57524
G1 X275.727 Y73.659 E27.7219
G1 X274.486 Y79.227 E28.35941
G1 X274.237 Y80.182 E28.4697
G1 X274.181 Y80.362 E28.49077
G1 X273.739 Y81.609 E28.63862
G1 X271.578 Y86.939 E29.28137
G1 X271.206 Y87.769 E29.38301
G1 X271.12 Y87.944 E29.4048
G1 X270.487 Y89.088 E29.55092
G1 X267.461 Y94.021 E30.19766
G1 X266.961 Y94.774 E30.29867
G1 X266.859 Y94.915 E30.31812
G1 X266.034 Y95.955 E30.46647
G1 X262.274 Y100.283 E31.10717
G1 X261.629 Y100.974 E31.21281
G1 X261.487 Y101.114 E31.23509
G1 X260.499 Y102.005 E31.38377
G1 X256.08 Y105.654 E32.02422
G1 X255.364 Y106.204 E32.12512
G1 X255.169 Y106.341 E32.15175
G1 X254.099 Y107.027 E32.29379
G1 X249.124 Y109.911 E32.93643
G1 X248.602 Y110.198 E33.003
G1 X247.105 Y110.985 E33.19201
G1 X169.668 Y151.604 E42.96419
G1 X169.627 Y151.623 E42.96924
G1 X168.715 Y152.102 E43.08437
G1 X130.982 Y171.896 E47.84617
G1 X87.15 Y194.886 E53.37747
G1 X86.544 Y195.186 E53.45303
G1 X82.485 Y197.102 E53.95464
G1 X81.584 Y197.487 E54.06414
G1 X81.42 Y197.549 E54.08373
G1 X80.167 Y197.965 E54.23127
G1 X75.842 Y199.188 E54.73356
G1 X74.927 Y199.41 E54.83878
G1 X74.733 Y199.45 E54.86092
G1 X73.445 Y199.651 E55.0066
G1 X68.923 Y200.151 E55.51503
G1 X68.03 Y200.217 E55.6151
G1 X67.833 Y200.224 E55.63713
G1 X66.515 Y200.211 E55.78443
G1 X61.981 Y199.961 E56.29189
G1 X61.074 Y199.879 E56.39367
G1 X60.906 Y199.856 E56.41262
G1 X59.603 Y199.626 E56.56048
G1 X55.183 Y198.637 E57.06665
G1 X54.287 Y198.402 E57.17017
G1 X54.095 Y198.343 E57.19262
G1 X52.859 Y197.904 E57.3392
G1 X48.673 Y196.202 E57.84419
G1 X47.829 Y195.823 E57.94759
G1 X47.642 Y195.73 E57.97092
G1 X46.491 Y195.091 E58.11805
G1 X42.63 Y192.717 E58.62457
G1 X41.879 Y192.219 E58.72527
G1 X41.726 Y192.108 E58.74639
G1 X40.798 Y191.373 E58.87869
G1 X40.671 Y191.265 E58.89732
G1 X37.294 Y188.324 E59.39777
G1 X36.599 Y187.672 E59.50427
G1 X36.464 Y187.534 E59.52584
G1 X35.581 Y186.553 E59.67334
G1 X32.724 Y183.083 E60.17566
G1 X32.144 Y182.323 E60.2825
G1 X32.056 Y182.197 E60.29967
G1 X31.313 Y181.031 E60.45418
G1 X29.1 Y177.197 E60.9489
G1 X28.666 Y176.379 E61.05239
G1 X28.59 Y176.221 E61.07198
G1 X28.102 Y175.085 E61.21015
G1 X27.65 Y173.901 E61.35178
G1 X26.463 Y170.726 E61.73059
G1 X26.166 Y169.834 E61.83565
G1 X26.115 Y169.658 E61.85613
G1 X25.813 Y168.417 E61.99886
G1 X24.949 Y164 E62.50184
G1 X24.801 Y163.062 E62.60796
G1 X24.782 Y162.897 E62.62652
G1 X24.688 Y161.598 E62.77207
G1 X24.555 Y157.072 E63.27808
G1 X24.561 Y156.145 E63.38168
G1 X24.57 Y155.955 E63.40294
G1 X24.693 Y154.629 E63.55176
G1 X25.294 Y150.224 E64.0486
G1 X25.462 Y149.252 E64.15883
G1 X25.501 Y149.073 E64.17931
G1 X25.833 Y147.809 E64.32536
G1 X27.167 Y143.518 E64.82753
G1 X27.485 Y142.614 E64.93463
G1 X27.565 Y142.412 E64.95891
G1 X28.097 Y141.229 E65.10386
G1 X30.129 Y137.197 E65.60844
G1 X30.589 Y136.361 E65.71508
G1 X30.687 Y136.2 E65.73614
G1 X31.408 Y135.117 E65.88154
G1 X34.059 Y131.498 E66.38288
G1 X34.665 Y130.732 E66.49203
G1 X34.786 Y130.592 E66.51271
G1 X35.662 Y129.657 E66.6559
G1 X38.879 Y126.515 E67.15843
G1 X39.607 Y125.855 E67.26825
G1 X39.755 Y125.731 E67.28982
G1 X40.793 Y124.938 E67.4358
G1 X44.474 Y122.377 E67.93693
G1 X45.01 Y122.021 E68.00884
G1 X86.887 Y95.523 E73.54696
G0 F9000 X86.4 Y95.831
G1 F1350 X86.4 Y195.254 E84.65788
G0 F9000 X84.8 Y196.01
G1 F1350 X84.8 Y96.843 E95.7402
G0 F9000 X83.2 Y97.855
G1 F1350 X83.2 Y196.765 E106.79379
G0 F9000 X81.6 Y197.481
G1 F1350 X81.6 Y98.868 E117.81419
G0 F9000 X80 Y99.88
G1 F1350 X80 Y198.013 E128.78096
G0 F9000 X78.4 Y198.465
G1 F1350 X78.4 Y100.893 E139.68502
G0 F9000 X76.8 Y101.905
G1 F1350 X76.8 Y198.918 E150.52662
G0 F9000 X75.2 Y199.344
G1 F1350 X75.2 Y102.918 E161.30261
G0 F9000 X73.6 Y103.93
G1 F1350 X73.6 Y199.627 E171.99714
G0 F9000 X72 Y199.811
G1 F1350 X72 Y104.942 E182.59914
G0 F9000 X70.4 Y105.955
G1 F1350 X70.4 Y199.988 E193.10771
G0 F9000 X68.8 Y200.161
G1 F1350 X68.8 Y106.967 E203.52251
G0 F9000 X67.2 Y107.98
G1 F1350 X67.2 Y200.217 E213.83037
G0 F9000 X65.6 Y200.16
G1 F1350 X65.6 Y108.992 E224.01877
G0 F9000 X64 Y110.004
G1 F1350 X64 Y200.072 E234.08423
G0 F9000 X62.4 Y199.984
G1 F1350 X62.4 Y111.017 E244.02665
G0 F9000 X60.8 Y112.029
G1 F1350 X60.8 Y199.837 E253.83955
G0 F9000 X59.2 Y199.535
G1 F1350 X59.2 Y113.042 E263.5055
G0 F9000 X57.6 Y114.054
G1 F1350 X57.6 Y199.177 E273.01834
G0 F9000 X56 Y198.819
G1 F1350 X56 Y115.066 E282.37807
G0 F9000 X54.4 Y116.079
G1 F1350 X54.4 Y198.431 E291.58124
G0 F9000 X52.8 Y197.88
G1 F1350 X52.8 Y117.091 E300.60974
G0 F9000 X51.2 Y118.104
G1 F1350 X51.2 Y197.229 E309.45228
G0 F9000 X49.6 Y196.578
G1 F1350 X49.6 Y119.116 E318.10897
G0 F9000 X48 Y120.129
G1 F1350 X48 Y195.899 E326.57658
G0 F9000 X46.4 Y195.035
G1 F1350 X46.4 Y121.141 E334.83453
G0 F9000 X44.8 Y122.16
G1 F1350 X44.8 Y194.051 E342.86864
G0 F9000 X43.2 Y193.067
G1 F1350 X43.2 Y123.263 E350.66952
G0 F9000 X41.6 Y124.376
G1 F1350 X41.6 Y192.008 E358.22767
G0 F9000 X40 Y190.68
G1 F1350 X40 Y125.543 E365.507
G0 F9000 X38.4 Y126.982
G1 F1350 X38.4 Y189.287 E372.46983
G0 F9000 X36.8 Y187.86
G1 F1350 X36.8 Y128.545 E379.09852
G0 F9000 X35.2 Y130.15
G1 F1350 X35.2 Y186.09 E385.35005
G0 F9000 X33.6 Y184.146
G1 F1350 X33.6 Y132.124 E391.16372
G0 F9000 X32 Y134.308
G1 F1350 X32 Y182.109 E396.50567
G0 F9000 X30.4 Y179.449
G1 F1350 X30.4 Y136.704 E401.2826
G0 F9000 X28.8 Y139.834
G1 F1350 X28.8 Y176.631 E405.39481
G0 F9000 X27.2 Y172.697
G1 F1350 X27.2 Y143.424 E408.66619
G1 F1500 E402.16619
G0 F9000 X26.155 Y143.19
G0 X24.786 Y147.602
G0 X25.6 Y148.696
G1 F1500 E408.66619
G1 F1350 X25.6 Y167.328 E410.74839
G1 F1500 E404.24839
G0 F9000 X24.556 Y167.532
G0 X25.151 Y170.157
G0 X27.156 Y175.585
G0 X27.713 Y176.853
G0 X30.5 Y181.742
G0 X31.289 Y182.958
G0 X34.869 Y187.356
G0 X35.86 Y188.439
G0 X40.122 Y192.195
G0 X41.273 Y193.093
G0 X46.089 Y196.088
G0 X47.37 Y196.785
G0 X52.602 Y198.944
G0 X53.99 Y199.424
G0 X59.492 Y200.69
G0 X60.954 Y200.936
G0 X66.611 Y201.278
G0 X68.085 Y201.28
G0 X73.711 Y200.688
G0 X75.166 Y200.448
G0 X80.633 Y198.934
G0 X81.989 Y198.472
G0 X86.557 Y196.338
G0 X88.494 Y195.382
G0 X88 Y194.441
G1 F1500 E410.74839
G1 F1350 X88 Y94.818 E421.88166
G0 F9000 X89.6 Y93.806
G1 F1350 X89.6 Y193.601 E433.03416
G0 F9000 X91.2 Y192.762
G1 F1350 X91.2 Y92.794 E444.20599
G0 F9000 X92.8 Y91.781
G1 F1350 X92.8 Y191.923 E455.39726
G0 F9000 X94.4 Y191.084
G1 F1350 X94.4 Y90.769 E466.60787
G0 F9000 X96 Y89.757
G1 F1350 X96 Y190.245 E477.83781
G0 F9000 X97.6 Y189.405
G1 F1350 X97.6 Y88.744 E489.08709
G0 F9000 X99.2 Y87.732
G1 F1350 X99.2 Y188.566 E500.3557
G0 F9000 X100.8 Y187.727
G1 F1350 X100.8 Y86.72 E511.64364
G0 F9000 X102.4 Y85.707
G1 F1350 X102.4 Y186.888 E522.95102
G0 F9000 X104 Y186.049
G1 F1350 X104 Y84.695 E534.27775
G0 F9000 X105.6 Y83.683
G1 F1350 X105.6 Y185.209 E545.62369
G0 F9000 X107.2 Y184.37
G1 F1350 X107.2 Y82.67 E556.98907
G0 F9000 X108.8 Y81.658
G1 F1350 X108.8 Y183.531 E568.3738
G0 F9000 X110.4 Y182.692
G1 F1350 X110.4 Y80.645 E579.77796
G0 F9000 X112 Y79.633
G1 F1350 X112 Y181.853 E591.20146
G0 F9000 X113.6 Y181.013
G1 F1350 X113.6 Y78.621 E602.64418
G0 F9000 X115.2 Y77.608
G1 F1350 X115.2 Y180.174 E614.10635
G0 F9000 X116.8 Y179.335
G1 F1350 X116.8 Y76.596 E625.58785
G0 F9000 X118.4 Y75.584
G1 F1350 X118.4 Y178.496 E637.08868
G0 F9000 X120 Y177.657
G1 F1350 X120 Y74.571 E648.60896
G0 F9000 X121.6 Y73.559
G1 F1350 X121.6 Y176.817 E660.14846
G0 F9000 X123.2 Y175.978
G1 F1350 X123.2 Y72.547 E671.70729
G0 F9000 X124.8 Y71.534
G1 F1350 X124.8 Y175.139 E683.28557
G0 F9000 X126.4 Y174.3
G1 F1350 X126.4 Y70.522 E694.88318
G0 F9000 X128 Y69.51
G1 F1350 X128 Y173.461 E706.50013
G0 F9000 X129.6 Y172.621
G1 F1350 X129.6 Y68.497 E718.13641
G0 F9000 X131.2 Y67.485
G1 F1350 X131.2 Y171.782 E729.79202
G0 F9000 X132.8 Y170.943
G1 F1350 X132.8 Y66.473 E741.46697
G0 F9000 X134.4 Y65.46
G1 F1350 X134.4 Y170.103 E753.16125
G0 F9000 X136 Y169.264
G1 F1350 X136 Y64.448 E764.87486
G0 F9000 X137.6 Y63.436
G1 F1350 X137.6 Y168.425 E776.60781
G0 F9000 X139.2 Y167.585
G1 F1350 X139.2 Y62.423 E788.36009
G0 F9000 X140.8 Y61.411
G1 F1350 X140.8 Y166.746 E800.1317
G0 F9000 X142.4 Y165.907
G1 F1350 X142.4 Y60.399 E811.92265
G0 F9000 X144 Y59.386
G1 F1350 X144 Y165.068 E823.73304
G0 F9000 X145.6 Y164.228
G1 F1350 X145.6 Y58.374 E835.56265
G0 F9000 X147.2 Y57.362
G1 F1350 X147.2 Y163.389 E847.4116
G0 F9000 X148.8 Y162.55
G1 F1350 X148.8 Y56.349 E859.27999
G0 F9000 X150.4 Y55.337
G1 F1350 X150.4 Y161.71 E871.1676
G0 F9000 X152 Y160.871
G1 F1350 X152 Y54.325 E883.07455
G0 F9000 X153.6 Y53.312
G1 F1350 X153.6 Y160.032 E895.00094
G0 F9000 X155.2 Y159.192
G1 F1350 X155.2 Y52.3 E906.94656
G0 F9000 X156.8 Y51.288
G1 F1350 X156.8 Y158.353 E918.91151
G0 F9000 X158.4 Y157.514
G1 F1350 X158.4 Y50.275 E930.8959
G0 F9000 X160 Y49.263
G1 F1350 X160 Y156.674 E942.89951
G0 F9000 X161.6 Y155.835
G1 F1350 X161.6 Y48.251 E954.92246
G0 F9000 X163.2 Y47.238
G1 F1350 X163.2 Y154.996 E966.96486
G0 F9000 X164.8 Y154.156
G1 F1350 X164.8 Y46.226 E979.02647
G0 F9000 X166.4 Y45.214
G1 F1350 X166.4 Y153.317 E991.10742
G0 F9000 X168 Y152.478
G1 F1350 X168 Y44.201 E1003.20781
G0 F9000 X169.6 Y43.189
G1 F1350 X169.6 Y151.638 E1015.32743
G0 F9000 X171.2 Y150.801
G1 F1350 X171.2 Y42.177 E1027.4666
G0 F9000 X172.8 Y41.167
G1 F1350 X172.8 Y149.962 E1039.62488
G0 F9000 X174.4 Y149.122
G1 F1350 X174.4 Y40.155 E1051.80239
G0 F9000 X176 Y39.142
G1 F1350 X176 Y148.283 E1063.99934
G0 F9000 X177.6 Y147.444
G1 F1350 X177.6 Y38.13 E1076.21562
G0 F9000 X179.2 Y37.118
G1 F1350 X179.2 Y146.605 E1088.45123
G0 F9000 X180.8 Y145.765
G1 F1350 X180.8 Y36.105 E1100.70618
G0 F9000 X182.4 Y35.093
G1 F1350 X182.4 Y144.926 E1112.98047
G0 F9000 X184 Y144.087
G1 F1350 X184 Y34.08 E1125.2742
G0 F9000 X185.6 Y33.068
G1 F1350 X185.6 Y143.247 E1137.58715
G0 F9000 X187.2 Y142.408
G1 F1350 X187.2 Y32.056 E1149.91943
G0 F9000 X188.8 Y31.043
G1 F1350 X188.8 Y141.569 E1162.27116
G0 F9000 X190.4 Y140.73
G1 F1350 X190.4 Y30.031 E1174.64222
G0 F9000 X192 Y29.019
G1 F1350 X192 Y139.89 E1187.0325
G0 F9000 X193.6 Y139.051
G1 F1350 X193.6 Y28.006 E1199.44223
G0 F9000 X195.2 Y26.994
G1 F1350 X195.2 Y138.212 E1211.87129
G0 F9000 X196.8 Y137.373
G1 F1350 X196.8 Y25.982 E1224.31969
G0 F9000 X198.4 Y24.969
G1 F1350 X198.4 Y136.533 E1236.78742
G0 F9000 X200 Y135.694
G1 F1350 X200 Y23.993 E1249.27046
G0 F9000 X201.6 Y23.073
G1 F1350 X201.6 Y134.855 E1261.76255
G0 F9000 X203.2 Y134.016
G1 F1350 X203.2 Y22.152 E1274.26381
G0 F9000 X204.8 Y21.238
G1 F1350 X204.8 Y133.176 E1286.77333
G0 F9000 X206.4 Y132.337
G1 F1350 X206.4 Y20.479 E1299.27392
G0 F9000 X208 Y19.858
G1 F1350 X208 Y131.498 E1311.75014
G0 F9000 X209.6 Y130.658
G1 F1350 X209.6 Y19.262 E1324.19909
G0 F9000 X211.2 Y18.666
G1 F1350 X211.2 Y129.819 E1336.62089
G0 F9000 X212.8 Y128.98
G1 F1350 X212.8 Y18.091 E1349.01319
G0 F9000 X214.4 Y17.663
G1 F1350 X214.4 Y128.141 E1361.35955
G0 F9000 X216 Y127.301
G1 F1350 X216 Y17.344 E1373.64769
G0 F9000 X217.6 Y17.034
G1 F1350 X217.6 Y126.462 E1385.87671
G0 F9000 X219.2 Y125.623
G1 F1350 X219.2 Y16.724 E1398.04662
G0 F9000 X220.8 Y16.434
G1 F1350 X220.8 Y124.784 E1410.15517
G0 F9000 X222.4 Y123.944
G1 F1350 X222.4 Y16.281 E1422.18695
G0 F9000 X224 Y16.227
G1 F1350 X224 Y123.105 E1434.131
G0 F9000 X225.6 Y122.266
G1 F1350 X225.6 Y16.184 E1445.98609
G0 F9000 X227.2 Y16.142
G1 F1350 X227.2 Y121.427 E1457.75212
G0 F9000 X228.8 Y120.587
G1 F1350 X228.8 Y16.114 E1469.4274
G0 F9000 X230.4 Y16.211
G1 F1350 X230.4 Y119.748 E1480.99808
G0 F9000 X232 Y118.909
G1 F1350 X232 Y16.414 E1492.45231
G0 F9000 X233.6 Y16.638
G1 F1350 X233.6 Y118.069 E1503.78763
G0 F9000 X235.2 Y117.23
G1 F1350 X235.2 Y16.862 E1515.00416
G0 F9000 X236.8 Y17.094
G1 F1350 X236.8 Y116.391 E1526.10101
G0 F9000 X238.4 Y115.552
G1 F1350 X238.4 Y17.451 E1537.06419
G0 F9000 X240 Y17.927
G1 F1350 X240 Y114.712 E1547.88031
G0 F9000 X241.6 Y113.873
G1 F1350 X241.6 Y18.429 E1558.54656
G0 F9000 X243.2 Y18.931
G1 F1350 X243.2 Y113.034 E1569.06295
G0 F9000 X244.8 Y112.195
G1 F1350 X244.8 Y19.448 E1579.42781
G0 F9000 X246.4 Y20.115
G1 F1350 X246.4 Y111.355 E1589.62425
G0 F9000 X248 Y110.515
G1 F1350 X248 Y20.913 E1599.63763
G0 F9000 X249.6 Y21.723
G1 F1350 X249.6 Y109.636 E1609.46227
G0 F9000 X251.2 Y108.708
G1 F1350 X251.2 Y22.534 E1619.09256
G0 F9000 X252.8 Y23.406
G1 F1350 X252.8 Y107.781 E1628.52181
G0 F9000 X254.4 Y106.835
G1 F1350 X254.4 Y24.513 E1637.72163
G0 F9000 X256 Y25.69
G1 F1350 X256 Y105.716 E1646.66486
G0 F9000 X257.6 Y104.399
G1 F1350 X257.6 Y26.868 E1655.32926
G0 F9000 X259.2 Y28.086
G1 F1350 X259.2 Y103.078 E1663.70992
G0 F9000 X260.8 Y101.734
G1 F1350 X260.8 Y29.62 E1671.76895
G0 F9000 X262.4 Y31.266
G1 F1350 X262.4 Y100.138 E1679.46568
G0 F9000 X264 Y98.297
G1 F1350 X264 Y32.913 E1686.7726
G0 F9000 X265.6 Y34.777
